; generated by PrusaSlicer 2.9.2 on 2025-06-07 at 08:43:17 UTC


;
;
; 

; external perimeters extrusion width = 0.60mm
; perimeters extrusion width = 0.43mm
; infill extrusion width = 0.45mm
; solid infill extrusion width = 0.70mm
; top infill extrusion width = 0.45mm
; first layer extrusion width = 0.42mm

M73 P0 R223
M201 X9000 Y9000 Z500 E10000 ; sets maximum accelerations, mm/sec^2
M203 X500 Y500 Z12 E120 ; sets maximum feedrates, mm / sec
M204 S2000 T1500 ; sets acceleration (S) and retract acceleration (R), mm/sec^2
M205 X10.00 Y10.00 Z0.20 E4.50 ; sets the jerk limits, mm/sec
M205 S0 T0 ; sets the minimum extruding and travel feed rate, mm/sec

; printing object Diffuser Cover V1.stl id:0 copy 0
; stop printing object Diffuser Cover V1.stl id:0 copy 0

;TYPE:Custom
M862.3 P "MK2.5SMMU2S" ; printer model check
M862.1 P0.4 ; nozzle diameter check
M115 U3.14.1 ; tell printer latest fw version
G90 ; use absolute coordinates
M83 ; extruder relative mode
M104 S215 ; set extruder temp
M140 S60 ; set bed temp
Tx
M190 S60 ; wait for bed temp
M109 S215 ; wait for extruder temp
G28 W ; home all without mesh bed level
G80 X7.0121 Y47.4024 W235.976 H115.203 ; mesh bed levelling

;go outside print area
G1 Y-3 F1000
G1 Z0.4 F1000
; select extruder
Tc
; purge line
G1 X55 F2000
G1 Z0.3 F1000
G92 E0
G1 X240 E25 F2200
G1 Y-2 F1000
G1 X55 E25 F1400
G1 Z0.2 F1000
G1 X5 E4 F1000
G92 E0
G21 ; set units to millimeters
G90 ; use absolute coordinates
M83 ; use relative distances for extrusion

M900 K0.05 ; Filament gcode LA 1.5
M900 K30 ; Filament gcode LA 1.0




M107
;LAYER_CHANGE
;Z:0.2
;HEIGHT:0.2
G1 E-.8 F2100
G1 Z.6 F720
G1 X18.481 Y48.608 F10800
G1 Z.2 F720
G1 E.8 F2100
M204 S800
;TYPE:Skirt/Brim
;WIDTH:0.42
G1 F1200
G1 X20.423 Y48.034 E.06349
G1 X22.248 Y47.713 E.0581
G1 X24.248 Y47.591 E.06283
G1 X224.331 Y47.591 E6.27346
G1 X226.034 Y47.68 E.05347
G1 X227.572 Y47.909 E.04875
G1 X229.039 Y48.264 E.04732
G1 X230.652 Y48.82 E.05349
G1 X232.028 Y49.443 E.04736
G1 X233.38 Y50.21 E.04874
G1 X234.777 Y51.188 E.05347
G1 X235.96 Y52.197 E.04875
G1 X237.016 Y53.276 E.04734
G1 X238.09 Y54.602 E.0535
G1 X238.925 Y55.859 E.04732
G1 X239.666 Y57.226 E.04875
G1 X240.333 Y58.796 E.05348
G1 X240.801 Y60.278 E.04873
G1 X241.125 Y61.753 E.04735
G1 X241.333 Y63.446 E.05348
G1 X242.797 Y145.053 E2.55914
G1 X242.736 Y146.796 E.05468
G1 X242.417 Y148.922 E.06741
G1 X241.783 Y151.134 E.07215
G1 X240.947 Y153.067 E.06603
G1 X239.855 Y154.918 E.06738
G1 X238.438 Y156.732 E.07217
G1 X236.905 Y158.24 E.06742
G1 X235.053 Y159.638 E.07275
G1 X233.222 Y160.678 E.06602
G1 X231.517 Y161.4 E.05805
G1 X229.577 Y161.974 E.06343
G1 X227.752 Y162.295 E.0581
G1 X225.752 Y162.417 E.06283
G1 X25.092 Y162.406 E6.29155
G1 X22.784 Y162.165 E.07276
G1 X20.675 Y161.658 E.06801
G1 X18.469 Y160.807 E.07414
G1 X16.422 Y159.672 E.07339
G1 X14.531 Y158.253 E.07413
G1 X12.984 Y156.732 E.06802
G1 X11.531 Y154.866 E.07415
G1 X10.362 Y152.84 E.07334
G1 X9.661 Y151.194 E.05609
G1 X9.135 Y149.484 E.0561
G1 X8.792 Y147.729 E.05607
G1 X8.633 Y145.947 E.0561
G1 X7.203 Y64.955 E2.53984
G1 X7.239 Y63.529 E.04473
G1 X7.523 Y61.378 E.06803
G1 X8.124 Y59.137 E.07275
G1 X8.948 Y57.151 E.06742
G1 X10.11 Y55.142 E.07277
G1 X11.419 Y53.437 E.0674
G1 X13.061 Y51.797 E.07276
G1 X14.768 Y50.489 E.06743
M73 P0 R222
G1 X16.778 Y49.33 E.07275
G1 X18.425 Y48.632 E.05609
M204 S1000
;WIPE_START
G1 F8640
G1 X18.481 Y48.608 E-.01407
G1 X20.423 Y48.034 E-.46759
G1 X21.781 Y47.795 E-.31834
;WIPE_END
G1 Z.6 F720
G1 X19.28 Y50.96 F10800
G1 Z.2 F720
G1 E.8 F2100
M204 S800
G1 F1200
G1 X19.711 Y50.802 E.01439
G1 X21.568 Y50.321 E.06015
G1 X22.395 Y50.19 E.02625
G1 X24.368 Y50.066 E.06198
G1 X25.297 Y50.101 E.02915
G1 X26.222 Y50.195 E.02915
G1 X27.984 Y50.541 E.0563
G1 X29.797 Y51.144 E.05991
G1 X31.507 Y51.973 E.05958
G1 X33.074 Y53.002 E.05878
G1 X33.863 Y53.639 E.03179
G1 X35.09 Y54.836 E.05375
G1 X36.269 Y56.311 E.05921
G1 X37.189 Y57.813 E.05523
G1 X37.623 Y58.7 E.03096
G1 X38.215 Y60.29 E.0532
G1 X210.356 Y60.29 E5.39736
G1 X211.016 Y58.565 E.05791
G1 X211.863 Y56.989 E.0561
G1 X212.928 Y55.488 E.05771
G1 X213.576 Y54.74 E.03103
G1 X214.305 Y54.008 E.03239
G1 X215.824 Y52.768 E.06148
G1 X217.411 Y51.786 E.05851
G1 X218.282 Y51.358 E.03043
G1 X219.956 Y50.723 E.05614
G1 X221.666 Y50.304 E.0552
G1 X223.437 Y50.091 E.05593
G1 X224.354 Y50.066 E.02876
G1 X226.223 Y50.195 E.05874
G1 X227.974 Y50.538 E.05594
G1 X229.732 Y51.117 E.05803
G1 X230.625 Y51.511 E.0306
G1 X231.449 Y51.941 E.02914
G1 X232.943 Y52.904 E.05573
G1 X234.397 Y54.125 E.05953
G1 X235.659 Y55.499 E.0585
G1 X236.733 Y57.017 E.0583
G1 X237.522 Y58.48 E.05212
G1 X237.914 Y59.396 E.03124
G1 X238.462 Y61.118 E.05666
G1 X238.815 Y63.079 E.06247
G1 X238.894 Y65.178 E.06586
G1 X238.633 Y67.471 E.07236
G1 X238.026 Y69.665 E.07138
G1 X237.09 Y71.729 E.07106
G1 X236.246 Y73.082 E.05
G1 X235.238 Y74.357 E.05096
G1 X234.435 Y75.197 E.03644
G1 X233.289 Y76.193 E.04761
G1 X231.379 Y77.458 E.07183
G1 X229.483 Y78.328 E.06541
G1 X229.483 Y131.223 E1.65849
G1 X230.697 Y131.592 E.03978
G1 X232.14 Y132.205 E.04916
G1 X233.783 Y133.148 E.0594
G1 X235.09 Y134.122 E.05111
G1 X236.234 Y135.188 E.04903
G1 X237.258 Y136.374 E.04913
G1 X238.346 Y137.986 E.06098
G1 X239.058 Y139.378 E.04902
G1 X239.615 Y140.831 E.04879
G1 X240.087 Y142.706 E.06062
G1 X240.294 Y144.392 E.05326
G1 X240.322 Y145.572 E.03701
G1 X240.139 Y147.647 E.06531
G1 X239.919 Y148.745 E.03511
G1 X239.61 Y149.842 E.03573
G1 X238.86 Y151.704 E.06294
G1 X238.238 Y152.853 E.04097
G1 X236.991 Y154.619 E.06778
G1 X235.465 Y156.21 E.06912
G1 X233.642 Y157.603 E.07194
G1 X231.855 Y158.588 E.06398
G1 X229.959 Y159.311 E.06362
G1 X228.336 Y159.704 E.05236
G1 X227.319 Y159.853 E.03223
G1 X225.467 Y159.94 E.05813
G1 X224.394 Y159.883 E.03369
G1 X222.697 Y159.628 E.05381
G1 X220.783 Y159.086 E.06237
G1 X219.104 Y158.363 E.05732
G1 X218.217 Y157.874 E.03176
G1 X216.651 Y156.795 E.05963
G1 X215.176 Y155.456 E.06246
G1 X214.489 Y154.69 E.03226
G1 X213.44 Y153.265 E.05548
G1 X212.505 Y151.586 E.06026
G1 X212.166 Y150.814 E.02644
G1 X211.632 Y149.203 E.05321
G1 X39.805 Y149.203 E5.38751
G1 X38.915 Y151.589 E.07985
G1 X37.975 Y153.274 E.0605
G1 X37.057 Y154.538 E.04898
G1 X36.026 Y155.68 E.04824
G1 X34.875 Y156.711 E.04845
G1 X33.325 Y157.801 E.05941
G1 X31.881 Y158.576 E.05138
G1 X30.441 Y159.155 E.04866
G1 X29.037 Y159.558 E.0458
G1 X27.51 Y159.831 E.04864
G1 X25.971 Y159.94 E.04838
G1 X24.88 Y159.918 E.03421
G1 X22.872 Y159.664 E.06346
G1 X20.98 Y159.155 E.06143
G1 X19.907 Y158.74 E.03607
G1 X18.003 Y157.744 E.06737
G1 X16.295 Y156.504 E.06618
G1 X14.762 Y155.007 E.06718
G1 X13.475 Y153.319 E.06655
G1 X12.475 Y151.522 E.06448
G1 X11.81 Y149.835 E.05686
G1 X11.383 Y148.202 E.05292
G1 X11.236 Y147.333 E.02763
G1 X11.099 Y145.496 E.05776
G1 X11.187 Y143.711 E.05604
G1 X11.33 Y142.732 E.03102
G1 X11.737 Y141.051 E.05423
G1 X12.667 Y138.739 E.07814
G1 X13.491 Y137.314 E.05161
G1 X14.567 Y135.876 E.05631
G1 X15.218 Y135.157 E.03041
G1 X16.478 Y134.001 E.05361
G1 X17.172 Y133.469 E.02742
G1 X18.638 Y132.541 E.0544
G1 X20.256 Y131.778 E.05609
G1 X20.256 Y78.719 E1.66363
G1 X18.363 Y78.037 E.06309
G1 X16.335 Y76.938 E.07232
G1 X14.466 Y75.498 E.07398
G1 X13.609 Y74.654 E.03771
G1 X12.636 Y73.498 E.04738
G1 X11.759 Y72.199 E.04914
G1 X11.175 Y71.127 E.03828
G1 X10.329 Y69.001 E.07174
G1 X9.85 Y66.932 E.06659
G1 X9.697 Y65.477 E.04587
G1 X9.68 Y64.338 E.03572
G1 X9.904 Y62.108 E.07027
G1 X10.377 Y60.207 E.06142
G1 X10.788 Y59.088 E.03738
G1 X11.284 Y58.015 E.03706
G1 X12.293 Y56.334 E.06147
G1 X13.013 Y55.384 E.03737
G1 X14.56 Y53.776 E.06996
G1 X16.093 Y52.581 E.06094
G1 X17.23 Y51.884 E.04182
G1 X18.793 Y51.139 E.05429
G1 X19.224 Y50.981 E.01439
M204 S1000
G1 X19.348 Y51.349 F10800
M204 S800
G1 F1200
G1 X20.589 Y50.932 E.04105
G1 X21.634 Y50.693 E.03361
G1 X23.258 Y50.48 E.05136
G1 X24.361 Y50.443 E.0346
G1 X26.166 Y50.568 E.05673
G1 X27.047 Y50.713 E.02799
G1 X28.704 Y51.145 E.05369
G1 X30.575 Y51.906 E.06333
G1 X32.003 Y52.714 E.05144
G1 X32.853 Y53.307 E.0325
G1 X33.612 Y53.921 E.03061
G1 X34.815 Y55.094 E.05268
G1 X35.964 Y56.533 E.05774
G1 X36.853 Y57.985 E.05338
G1 X37.277 Y58.848 E.03015
G1 X37.939 Y60.667 E.06069
G1 X210.626 Y60.667 E5.41448
G1 X211.002 Y59.568 E.03642
G1 X211.727 Y57.982 E.05468
G1 X212.653 Y56.478 E.05538
G1 X213.857 Y54.992 E.05997
G1 X214.558 Y54.288 E.03115
G1 X216.047 Y53.072 E.06028
G1 X217.593 Y52.116 E.05699
G1 X218.433 Y51.704 E.02934
G1 X220.073 Y51.082 E.055
G1 X221.739 Y50.674 E.05378
G1 X223.465 Y50.467 E.05451
G1 X224.346 Y50.443 E.02763
G1 X226.179 Y50.569 E.05761
G1 X227.884 Y50.905 E.05449
G1 X229.597 Y51.47 E.05656
G1 X230.468 Y51.854 E.02985
G1 X231.26 Y52.267 E.02801
G1 X232.724 Y53.211 E.05462
G1 X234.14 Y54.402 E.05801
G1 X235.369 Y55.741 E.05699
G1 X236.409 Y57.211 E.05646
G1 X237.183 Y58.644 E.05107
G1 X237.564 Y59.538 E.03047
G1 X238.097 Y61.214 E.05514
G1 X238.441 Y63.126 E.06091
G1 X238.517 Y65.172 E.0642
G1 X238.262 Y67.404 E.07044
G1 X237.67 Y69.541 E.06953
G1 X236.757 Y71.552 E.06925
G1 X235.94 Y72.861 E.04838
G1 X234.961 Y74.102 E.04956
G1 X234.176 Y74.923 E.03562
G1 X233.053 Y75.898 E.04663
G1 X231.192 Y77.131 E.07
G1 X229.106 Y78.069 E.07171
G1 X229.106 Y131.517 E1.67582
G1 X230.564 Y131.945 E.04764
G1 X231.97 Y132.542 E.04789
G1 X233.581 Y133.466 E.05823
G1 X234.844 Y134.408 E.0494
G1 X235.959 Y135.447 E.04779
G1 X236.955 Y136.598 E.04772
G1 X238.022 Y138.18 E.05983
G1 X238.715 Y139.536 E.04775
G1 X239.254 Y140.941 E.04718
G1 X239.717 Y142.781 E.05949
G1 X239.918 Y144.42 E.05177
G1 X239.945 Y145.56 E.03575
G1 X239.766 Y147.594 E.06402
G1 X239.551 Y148.663 E.03419
G1 X239.253 Y149.719 E.0344
G1 X238.519 Y151.544 E.06168
G1 X237.918 Y152.654 E.03958
G1 X236.704 Y154.373 E.06598
G1 X235.218 Y155.925 E.06737
G1 X233.442 Y157.283 E.0701
G1 X231.702 Y158.243 E.06231
G1 X229.854 Y158.949 E.06203
G1 X228.263 Y159.334 E.05132
G1 X227.271 Y159.479 E.03143
G1 X225.468 Y159.563 E.05659
G1 X224.433 Y159.507 E.0325
G1 X222.77 Y159.258 E.05272
G1 X220.905 Y158.729 E.06078
G1 X219.27 Y158.024 E.05583
G1 X218.405 Y157.547 E.03097
G1 X216.881 Y156.495 E.05806
G1 X215.452 Y155.199 E.06049
G1 X214.782 Y154.452 E.03146
G1 X213.754 Y153.056 E.05436
G1 X213.241 Y152.198 E.03134
G1 X212.518 Y150.679 E.05275
G1 X211.919 Y148.826 E.06106
G1 X39.502 Y148.826 E5.40601
G1 X39.164 Y149.985 E.03785
M73 P0 R221
G1 X38.578 Y151.42 E.0486
G1 X37.656 Y153.074 E.05937
G1 X36.767 Y154.297 E.04741
G1 X35.763 Y155.409 E.04697
G1 X34.643 Y156.414 E.04718
G1 X33.122 Y157.483 E.05829
G1 X31.717 Y158.236 E.04998
G1 X30.314 Y158.8 E.04741
G1 X28.956 Y159.19 E.0443
G1 X27.468 Y159.456 E.04739
G1 X25.961 Y159.563 E.04737
G1 X24.907 Y159.542 E.03305
G1 X22.952 Y159.295 E.06178
G1 X21.097 Y158.796 E.06023
G1 X20.062 Y158.396 E.03479
G1 X18.207 Y157.427 E.06562
G1 X16.533 Y156.212 E.06485
G1 X15.04 Y154.752 E.06547
G1 X13.787 Y153.107 E.06484
G1 X12.814 Y151.356 E.06281
G1 X12.17 Y149.723 E.05504
G1 X11.608 Y147.276 E.07872
G1 X11.476 Y145.498 E.0559
G1 X11.561 Y143.759 E.05459
G1 X11.7 Y142.804 E.03026
G1 X12.1 Y141.157 E.05314
G1 X13.007 Y138.904 E.07615
G1 X13.803 Y137.526 E.0499
G1 X14.85 Y136.124 E.05486
G1 X15.486 Y135.423 E.02968
G1 X16.721 Y134.29 E.05255
G1 X18.814 Y132.874 E.07923
G1 X20.633 Y132.027 E.06291
G1 X20.633 Y78.44 E1.68018
G1 X18.507 Y77.689 E.0707
G1 X16.536 Y76.619 E.07032
G1 X14.726 Y75.225 E.07163
G1 X13.887 Y74.399 E.03692
G1 X12.94 Y73.274 E.04611
G1 X12.08 Y72.002 E.04814
G1 X11.51 Y70.953 E.03743
G1 X10.688 Y68.885 E.06978
G1 X10.223 Y66.877 E.06463
G1 X10.074 Y65.453 E.04489
G1 X10.057 Y64.353 E.03449
G1 X10.274 Y62.18 E.06847
G1 X10.738 Y60.317 E.0602
G1 X11.134 Y59.239 E.03601
G1 X11.617 Y58.192 E.03615
G1 X12.606 Y56.545 E.06024
G1 X14.07 Y54.768 E.07219
G1 X14.806 Y54.061 E.032
G1 X16.308 Y52.89 E.05972
G1 X17.408 Y52.217 E.04043
G1 X18.939 Y51.487 E.05318
G1 X19.291 Y51.368 E.01165
M204 S1000
G1 X19.417 Y51.713 F10800
M204 S800
G1 F1200
G1 X19.96 Y51.514 E.01813
G1 X21.7 Y51.064 E.05635
G1 X22.493 Y50.937 E.02518
G1 X24.353 Y50.82 E.05843
G1 X25.257 Y50.854 E.02836
G1 X26.969 Y51.082 E.05415
G1 X27.793 Y51.271 E.02651
G1 X29.501 Y51.838 E.05643
G1 X30.404 Y52.242 E.03102
G1 X31.802 Y53.033 E.05036
G1 X33.362 Y54.203 E.06114
G1 X34.54 Y55.352 E.0516
G1 X35.09 Y55.995 E.02653
G1 X36.082 Y57.399 E.0539
G1 X36.935 Y59.008 E.0571
G1 X37.663 Y61.044 E.0678
G1 X210.923 Y61.044 E5.43245
G1 X211.352 Y59.709 E.04397
G1 X212.057 Y58.165 E.05322
G1 X212.957 Y56.7 E.05391
G1 X213.522 Y55.953 E.02937
G1 X214.811 Y54.568 E.05932
G1 X215.579 Y53.899 E.03194
G1 X216.995 Y52.895 E.05443
G1 X218.583 Y52.05 E.0564
G1 X219.34 Y51.734 E.02572
G1 X220.98 Y51.221 E.05388
G1 X222.621 Y50.921 E.05231
G1 X224.338 Y50.82 E.05393
G1 X226.135 Y50.944 E.05648
G1 X227.795 Y51.271 E.05305
G1 X229.461 Y51.822 E.05502
G1 X230.31 Y52.196 E.02909
G1 X231.07 Y52.593 E.02688
G1 X232.505 Y53.518 E.05353
G1 X233.884 Y54.678 E.0565
G1 X235.08 Y55.982 E.05548
G1 X236.085 Y57.404 E.0546
G1 X236.843 Y58.808 E.05003
G1 X237.215 Y59.68 E.02972
G1 X237.733 Y61.311 E.05366
G1 X238.066 Y63.173 E.05931
G1 X238.14 Y65.165 E.0625
G1 X237.891 Y67.337 E.06855
G1 X237.314 Y69.417 E.06768
G1 X236.425 Y71.374 E.06739
G1 X235.218 Y73.202 E.06868
G1 X233.916 Y74.65 E.06106
G1 X232.225 Y76.042 E.06867
G1 X230.38 Y77.129 E.06714
G1 X228.729 Y77.809 E.05598
G1 X228.729 Y131.81 E1.69316
G1 X230.431 Y132.298 E.05552
M73 P1 R221
G1 X231.799 Y132.878 E.04659
G1 X232.486 Y133.239 E.02433
G1 X234.018 Y134.235 E.05729
G1 X235.158 Y135.188 E.04659
G1 X236.187 Y136.255 E.04648
G1 X237.295 Y137.722 E.05764
G1 X238.056 Y139.03 E.04745
G1 X238.654 Y140.373 E.04609
G1 X239.122 Y141.834 E.0481
G1 X239.47 Y143.668 E.05853
G1 X239.568 Y145.548 E.05903
G1 X239.392 Y147.54 E.0627
G1 X239.183 Y148.582 E.03332
G1 X238.896 Y149.597 E.03307
G1 X238.177 Y151.385 E.06042
G1 X237.598 Y152.454 E.03812
G1 X236.418 Y154.129 E.06424
G1 X234.971 Y155.64 E.0656
G1 X233.242 Y156.963 E.06826
G1 X231.549 Y157.898 E.06064
G1 X229.748 Y158.587 E.06046
G1 X228.191 Y158.964 E.05023
G1 X227.223 Y159.105 E.03067
G1 X225.469 Y159.186 E.05505
G1 X224.472 Y159.132 E.03131
G1 X222.843 Y158.888 E.05165
G1 X221.026 Y158.372 E.05922
G1 X219.435 Y157.685 E.05434
G1 X218.593 Y157.22 E.03016
G1 X217.11 Y156.196 E.05651
G1 X215.728 Y154.943 E.05849
G1 X215.075 Y154.215 E.03066
G1 X214.068 Y152.847 E.05326
G1 X213.574 Y152.02 E.0302
G1 X212.866 Y150.533 E.05164
G1 X212.205 Y148.448 E.06858
G1 X39.208 Y148.448 E5.4242
G1 X38.809 Y149.857 E.04592
G1 X38.241 Y151.251 E.0472
G1 X37.733 Y152.224 E.03442
G1 X36.919 Y153.481 E.04695
G1 X36.006 Y154.606 E.04543
G1 X34.965 Y155.645 E.04612
G1 X33.801 Y156.581 E.04683
G1 X32.216 Y157.566 E.05851
G1 X30.868 Y158.193 E.04661
G1 X28.875 Y158.822 E.06553
G1 X27.417 Y159.082 E.04644
G1 X25.95 Y159.186 E.04611
G1 X24.934 Y159.166 E.03186
G1 X23.031 Y158.926 E.06014
G1 X21.214 Y158.438 E.05899
G1 X20.218 Y158.053 E.03348
G1 X18.411 Y157.11 E.06391
G1 X16.782 Y155.928 E.06311
G1 X15.318 Y154.498 E.06417
G1 X14.099 Y152.895 E.06314
G1 X13.152 Y151.19 E.06115
G1 X12.53 Y149.611 E.05321
G1 X11.981 Y147.219 E.07695
G1 X11.853 Y145.499 E.05408
G1 X11.936 Y143.807 E.05312
G1 X12.07 Y142.877 E.02946
G1 X12.462 Y141.262 E.05211
G1 X13.346 Y139.068 E.07417
G1 X14.116 Y137.737 E.04821
G1 X15.134 Y136.373 E.05337
G1 X15.753 Y135.689 E.02892
G1 X16.955 Y134.586 E.05115
G1 X19.001 Y133.202 E.07745
G1 X21.01 Y132.298 E.06907
G1 X21.01 Y78.142 E1.69802
G1 X19.775 Y77.783 E.04033
G1 X18.664 Y77.346 E.03743
G1 X16.745 Y76.306 E.06844
G1 X14.986 Y74.952 E.0696
G1 X14.165 Y74.144 E.03612
G1 X13.244 Y73.051 E.04481
G1 X12.402 Y71.805 E.04715
G1 X11.844 Y70.779 E.03662
G1 X11.047 Y68.77 E.06777
G1 X10.596 Y66.822 E.06269
G1 X10.45 Y65.429 E.04392
G1 X10.433 Y64.368 E.03327
G1 X10.644 Y62.252 E.06667
G1 X11.098 Y60.428 E.05894
G1 X11.479 Y59.39 E.03467
G1 X11.95 Y58.368 E.03528
G1 X12.918 Y56.756 E.05896
G1 X13.586 Y55.875 E.03467
G1 X15.053 Y54.346 E.06644
G1 X16.524 Y53.2 E.05847
G1 X17.586 Y52.549 E.03906
G1 X19.085 Y51.834 E.05207
