; generated by PrusaSlicer 2.9.2 on 2025-06-07 at 19:58:25 UTC


;
;
; 

; external perimeters extrusion width = 0.60mm
; perimeters extrusion width = 0.43mm
; infill extrusion width = 0.45mm
; solid infill extrusion width = 0.70mm
; top infill extrusion width = 0.45mm
; first layer extrusion width = 0.42mm

M73 P0 R173
M201 X9000 Y9000 Z500 E10000 ; sets maximum accelerations, mm/sec^2
M203 X500 Y500 Z12 E120 ; sets maximum feedrates, mm / sec
M204 S2000 T1500 ; sets acceleration (S) and retract acceleration (R), mm/sec^2
M205 X10.00 Y10.00 Z0.20 E4.50 ; sets the jerk limits, mm/sec
M205 S0 T0 ; sets the minimum extruding and travel feed rate, mm/sec

; printing object Mount Glue Clamp.stl id:0 copy 0
; stop printing object Mount Glue Clamp.stl id:0 copy 0
; printing object Mount Glue Clamp.stl id:0 copy 1
; stop printing object Mount Glue Clamp.stl id:0 copy 1
; printing object Mount Glue Clamp.stl id:0 copy 2
; stop printing object Mount Glue Clamp.stl id:0 copy 2
; printing object Mount Glue Clamp.stl id:0 copy 3
; stop printing object Mount Glue Clamp.stl id:0 copy 3
; printing object Mount Glue Clamp.stl id:0 copy 4
; stop printing object Mount Glue Clamp.stl id:0 copy 4

;TYPE:Custom
M862.3 P "MK2.5SMMU2S" ; printer model check
M862.1 P0.4 ; nozzle diameter check
M115 U3.14.1 ; tell printer latest fw version
G90 ; use absolute coordinates
M83 ; extruder relative mode
M104 S215 ; set extruder temp
M140 S60 ; set bed temp
Tx
M190 S60 ; wait for bed temp
M109 S215 ; wait for extruder temp
G28 W ; home all without mesh bed level
G80 X51.8229 Y13.7229 W146.354 H182.554 ; mesh bed levelling

;go outside print area
G1 Y-3 F1000
G1 Z0.4 F1000
; select extruder
Tc
; purge line
G1 X55 F2000
G1 Z0.3 F1000
G92 E0
G1 X240 E25 F2200
G1 Y-2 F1000
M73 P0 R172
G1 X55 E25 F1400
G1 Z0.2 F1000
G1 X5 E4 F1000
G92 E0
G21 ; set units to millimeters
G90 ; use absolute coordinates
M83 ; use relative distances for extrusion

M900 K0.05 ; Filament gcode LA 1.5
M900 K30 ; Filament gcode LA 1.0




M107
;LAYER_CHANGE
;Z:0.2
;HEIGHT:0.2
G1 E-.8 F2100
G1 Z.6 F720
G1 X65.931 Y65.09 F10800
G1 Z.2 F720
G1 E.8 F2100
M204 S800
;TYPE:Skirt/Brim
;WIDTH:0.42
G1 F1200
G1 X115.824 Y14.552 E2.22669
G1 X117.372 Y13.911 E.05253
G1 X179.597 Y13.911 E1.95102
G1 X181.144 Y14.552 E.0525
G1 X184.132 Y17.54 E.13249
G1 X184.723 Y18.624 E.03871
G1 X197.989 Y80.088 E1.97154
G1 X197.989 Y190.912 E3.47481
G1 X197.348 Y192.46 E.05253
G1 X194.36 Y195.448 E.13249
G1 X192.812 Y196.089 E.05253
G1 X57.188 Y196.089 E4.2524
G1 X55.64 Y195.448 E.05253
G1 X52.652 Y192.46 E.13249
G1 X52.011 Y190.912 E.05253
G1 X52.011 Y80.088 E3.47481
G1 X52.642 Y78.55 E.05212
G1 X65.889 Y65.133 E.59118
M204 S1000
;WIPE_START
G1 F8640
G1 X65.931 Y65.09 E-.01388
G1 X68.323 Y62.667 E-.78612
;WIPE_END
G1 Z.6 F720
G1 X65.888 Y77.387 F10800
G1 Z.2 F720
G1 E.8 F2100
M204 S800
G1 F1200
G1 X117.689 Y77.39 E1.62418
G1 X118.71 Y77.584 E.03259
G1 X119.688 Y78 E.03332
G1 X120.812 Y78.896 E.04507
G1 X121.705 Y80.234 E.05044
G1 X122.113 Y81.779 E.0501
G1 X122.113 Y128.247 E1.45697
G1 X121.494 Y130.21 E.06454
G1 X121.035 Y130.845 E.02457
G1 X120.408 Y131.493 E.02827
G1 X119.163 Y132.248 E.04565
G1 X117.718 Y132.613 E.04673
G1 X58.853 Y132.613 E1.84567
G1 X56.89 Y131.994 E.06454
G1 X56.255 Y131.535 E.02457
G1 X55.607 Y130.908 E.02827
G1 X54.852 Y129.663 E.04565
G1 X54.487 Y128.218 E.04673
G1 X54.487 Y81.753 E1.45688
G1 X55.106 Y79.79 E.06454
G1 X55.565 Y79.155 E.02457
G1 X56.192 Y78.507 E.02827
G1 X57.437 Y77.752 E.04565
G1 X58.882 Y77.386 E.04674
G1 X65.828 Y77.387 E.21779
M204 S1000
G1 X65.828 Y77.764 F10800
M204 S800
G1 F1200
G1 X117.671 Y77.767 E1.6255
G1 X118.617 Y77.95 E.03021
G1 X119.515 Y78.336 E.03065
G1 X120.553 Y79.171 E.04177
G1 X121.349 Y80.362 E.04492
G1 X121.736 Y81.804 E.04681
G1 X121.736 Y128.218 E1.45528
G1 X121.17 Y130.015 E.05907
M73 P0 R171
G1 X120.754 Y130.593 E.02233
G1 X120.154 Y131.213 E.02705
G1 X118.994 Y131.91 E.04243
G1 X117.695 Y132.236 E.04199
G1 X58.882 Y132.236 E1.84404
G1 X57.085 Y131.67 E.05907
G1 X56.507 Y131.254 E.02233
G1 X55.887 Y130.654 E.02705
G1 X55.19 Y129.494 E.04243
G1 X54.864 Y128.195 E.04199
G1 X54.864 Y81.782 E1.45525
G1 X55.43 Y79.985 E.05907
G1 X55.846 Y79.407 E.02233
G1 X56.446 Y78.787 E.02705
G1 X57.606 Y78.09 E.04243
G1 X58.905 Y77.764 E.04199
G1 X65.768 Y77.764 E.21518
M204 S1000
G1 X65.768 Y78.141 F10800
M204 S800
G1 F1200
G1 X117.652 Y78.144 E1.62679
G1 X118.524 Y78.316 E.02787
G1 X119.34 Y78.671 E.0279
G1 X120.293 Y79.445 E.03849
G1 X121.017 Y80.543 E.04124
G1 X121.359 Y81.828 E.04169
G1 X121.359 Y128.189 E1.45362
G1 X120.846 Y129.82 E.05361
G1 X120.473 Y130.341 E.02009
G1 X119.9 Y130.933 E.02583
G1 X118.873 Y131.552 E.0376
G1 X117.671 Y131.859 E.0389
G1 X58.911 Y131.859 E1.84238
G1 X57.28 Y131.346 E.05361
G1 X56.759 Y130.973 E.02009
G1 X56.167 Y130.4 E.02583
G1 X55.548 Y129.373 E.0376
G1 X55.241 Y128.171 E.0389
G1 X55.241 Y81.811 E1.45359
G1 X55.754 Y80.18 E.05361
G1 X56.127 Y79.659 E.02009
G1 X56.7 Y79.067 E.02583
G1 X57.727 Y78.448 E.0376
G1 X58.929 Y78.141 E.0389
G1 X65.708 Y78.141 E.21255
M204 S1000
G1 X65.708 Y78.518 F10800
M204 S800
G1 F1200
G1 X117.633 Y78.521 E1.62807
G1 X118.429 Y78.681 E.02546
G1 X119.164 Y79.005 E.02519
G1 X120.03 Y79.717 E.03515
G1 X120.685 Y80.723 E.03764
G1 X120.982 Y81.852 E.0366
G1 X120.982 Y128.161 E1.45199
G1 X120.522 Y129.626 E.04815
G1 X120.192 Y130.089 E.01783
G1 X119.647 Y130.653 E.02459
G1 X118.704 Y131.214 E.0344
G1 X117.648 Y131.482 E.03416
G1 X58.939 Y131.482 E1.84078
G1 X57.474 Y131.022 E.04815
G1 X57.011 Y130.692 E.01783
G1 X56.447 Y130.147 E.02459
G1 X55.886 Y129.204 E.0344
G1 X55.618 Y128.148 E.03416
G1 X55.618 Y81.839 E1.45199
G1 X56.078 Y80.374 E.04815
G1 X56.953 Y79.347 E.0423
G1 X57.896 Y78.786 E.0344
G1 X58.953 Y78.518 E.03419
G1 X65.648 Y78.518 E.20992
M204 S1000
G1 X65.648 Y78.895 F10800
M204 S800
G1 F1200
G1 X117.614 Y78.898 E1.62936
G1 X118.296 Y79.035 E.02181
G1 X118.987 Y79.339 E.02367
G1 X119.767 Y79.988 E.03181
G1 X120.329 Y80.85 E.03226
G1 X120.605 Y81.878 E.03337
G1 X120.605 Y128.132 E1.45026
G1 X120.196 Y129.433 E.04276
G1 X119.393 Y130.373 E.03876
G1 X118.583 Y130.856 E.02957
G1 X117.623 Y131.105 E.0311
G1 X58.968 Y131.105 E1.83909
G1 X57.667 Y130.696 E.04276
M73 P1 R171
G1 X56.727 Y129.893 E.03876
G1 X56.244 Y129.083 E.02957
G1 X55.995 Y128.123 E.0311
G1 X55.995 Y81.868 E1.45029
G1 X56.404 Y80.567 E.04276
G1 X57.207 Y79.627 E.03876
G1 X58.017 Y79.144 E.02957
G1 X58.977 Y78.895 E.0311
G1 X65.588 Y78.895 E.20728
M204 S1000
G1 X65.588 Y79.272 F10800
M204 S800
G1 F1200
G1 X117.595 Y79.276 E1.63064
G1 X118.199 Y79.4 E.01933
G1 X118.808 Y79.672 E.02091
G1 X119.501 Y80.257 E.02844
G1 X119.995 Y81.028 E.02871
G1 X120.228 Y81.902 E.02836
G1 X120.228 Y128.103 E1.4486
G1 X119.871 Y129.241 E.0374
G1 X119.629 Y129.587 E.01324
G1 X119.139 Y130.093 E.02209
G1 X118.46 Y130.499 E.02481
G1 X117.598 Y130.728 E.02796
G1 X58.997 Y130.728 E1.83739
G1 X57.859 Y130.371 E.0374
G1 X57.513 Y130.129 E.01324
G1 X57.007 Y129.639 E.02209
G1 X56.601 Y128.96 E.02481
G1 X56.372 Y128.098 E.02796
G1 X56.372 Y81.897 E1.4486
G1 X56.729 Y80.759 E.0374
G1 X57.461 Y79.907 E.03522
G1 X58.14 Y79.501 E.02481
G1 X59.002 Y79.272 E.02796
G1 X65.528 Y79.272 E.20462
M204 S1000
G1 X65.528 Y79.649 F10800
M204 S800
G1 F1200
G1 X117.574 Y79.653 E1.63187
G1 X118.099 Y79.764 E.01682
G1 X118.627 Y80.004 E.01819
G1 X119.234 Y80.525 E.02508
G1 X119.639 Y81.156 E.02351
G1 X119.851 Y81.928 E.0251
G1 X119.851 Y128.074 E1.44688
G1 X119.544 Y129.05 E.03208
G1 X118.885 Y129.813 E.03161
G1 X118.335 Y130.142 E.02009
G1 X117.572 Y130.351 E.0248
G1 X59.026 Y130.351 E1.83567
G1 X58.05 Y130.044 E.03208
M73 P1 R170
G1 X57.287 Y129.385 E.03161
G1 X56.958 Y128.835 E.02009
G1 X56.749 Y128.072 E.0248
G1 X56.749 Y81.926 E1.44688
G1 X57.056 Y80.95 E.03208
G1 X57.715 Y80.187 E.03161
G1 X58.265 Y79.858 E.02009
G1 X59.028 Y79.649 E.0248
G1 X65.468 Y79.649 E.20192
M204 S1000
G1 X65.468 Y80.026 F10800
M204 S800
G1 F1200
G1 X117.553 Y80.03 E1.63309
G1 X117.997 Y80.127 E.01425
G1 X118.443 Y80.334 E.01542
G1 X118.966 Y80.791 E.02178
G1 X119.285 Y81.286 E.01846
G1 X119.474 Y81.955 E.0218
G1 X119.474 Y128.045 E1.44512
G1 X119.217 Y128.861 E.02682
G1 X119.064 Y129.086 E.00853
G1 X118.632 Y129.533 E.01949
G1 X118.208 Y129.786 E.01548
G1 X117.545 Y129.974 E.02161
G1 X59.055 Y129.974 E1.83391
G1 X58.239 Y129.717 E.02682
G1 X58.014 Y129.564 E.00853
G1 X57.567 Y129.132 E.01949
G1 X57.314 Y128.708 E.01548
G1 X57.126 Y128.045 E.02161
G1 X57.126 Y81.955 E1.44512
G1 X57.383 Y81.139 E.02682
G1 X57.968 Y80.467 E.02794
G1 X58.392 Y80.214 E.01548
G1 X59.055 Y80.026 E.02161
G1 X65.408 Y80.026 E.19919
M204 S1000
G1 X65.408 Y80.404 F10800
M204 S800
G1 F1200
G1 X117.531 Y80.407 E1.63428
G1 X118.256 Y80.662 E.0241
G1 X118.696 Y81.054 E.01848
G1 X118.931 Y81.42 E.01364
G1 X119.097 Y81.983 E.0184
G1 X119.097 Y128.016 E1.44333
G1 X118.888 Y128.675 E.02168
G1 X118.378 Y129.253 E.02417
G1 X118.078 Y129.432 E.01095
G1 X117.517 Y129.597 E.01833
G1 X59.084 Y129.597 E1.83213
G1 X58.425 Y129.388 E.02168
G1 X57.847 Y128.878 E.02417
G1 X57.668 Y128.578 E.01095
G1 X57.503 Y128.017 E.01833
G1 X57.503 Y81.984 E1.44333
G1 X57.712 Y81.325 E.02168
G1 X58.222 Y80.747 E.02417
G1 X58.522 Y80.568 E.01095
G1 X59.083 Y80.403 E.01833
G1 X65.348 Y80.404 E.19643
M204 S1000
G1 X65.348 Y80.781 F10800
M204 S800
G1 F1200
G1 X117.509 Y80.784 E1.63547
G1 X118.068 Y80.991 E.01869
G1 X118.579 Y81.557 E.02391
G1 X118.72 Y82.012 E.01494
G1 X118.72 Y127.987 E1.44151
G1 X118.496 Y128.589 E.02014
G1 X118.125 Y128.972 E.01672
G1 X117.488 Y129.22 E.02143
G1 X59.113 Y129.22 E1.83031
G1 X58.511 Y128.996 E.02014
G1 X58.128 Y128.625 E.01672
G1 X57.88 Y127.988 E.02143
G1 X57.88 Y82.013 E1.44151
G1 X58.043 Y81.507 E.01667
G1 X58.475 Y81.028 E.02022
G1 X59.112 Y80.78 E.02143
G1 X65.288 Y80.781 E.19364
M204 S1000
G1 X65.288 Y81.158 F10800
M204 S800
G1 F1200
G1 X117.487 Y81.161 E1.63666
G1 X117.878 Y81.318 E.01321
G1 X118.147 Y81.573 E.01162
G1 X118.343 Y82.044 E.016
G1 X118.343 Y127.956 E1.43954
G1 X118.206 Y128.347 E.01299
G1 X117.903 Y128.666 E.01379
G1 X117.456 Y128.843 E.01507
G1 X59.144 Y128.843 E1.82833
G1 X58.753 Y128.706 E.01299
G1 X58.434 Y128.403 E.01379
G1 X58.257 Y127.956 E.01507
G1 X58.257 Y82.044 E1.43954
G1 X58.394 Y81.653 E.01299
G1 X58.697 Y81.334 E.01379
G1 X59.144 Y81.157 E.01507
G1 X65.228 Y81.158 E.19076
M204 S1000
G1 X65.228 Y81.534 F10800
M204 S800
G1 F1200
G1 X117.435 Y81.534 E1.63691
G1 X117.866 Y81.825 E.01631
G1 X117.966 Y82.079 E.00856
G1 X117.966 Y127.921 E1.43734
G1 X117.889 Y128.134 E.0071
G1 X117.672 Y128.368 E.01001
G1 X117.421 Y128.466 E.00845
G1 X59.179 Y128.466 E1.82614
G1 X58.966 Y128.389 E.0071
G1 X58.732 Y128.172 E.01001
G1 X58.634 Y127.921 E.00845
G1 X58.634 Y82.079 E1.43734
G1 X58.711 Y81.866 E.0071
G1 X58.928 Y81.632 E.01001
G1 X59.179 Y81.534 E.00845
G1 X65.168 Y81.534 E.18778
M204 S1000
G1 X65.168 Y81.94 F10800
M204 S800
G1 F1200
G1 X117.448 Y81.94 E1.6392
G1 X117.589 Y82.121 E.00719
M73 P1 R169
G1 X117.589 Y127.879 E1.43471
G1 X117.448 Y128.06 E.00719
G1 X59.221 Y128.089 E1.82567
G1 X59.04 Y127.948 E.00719
G1 X59.011 Y82.121 E1.43687
G1 X59.152 Y81.94 E.00719
G1 X65.108 Y81.94 E.18675
M204 S1000
;WIPE_START
G1 F8640
G1 X65.168 Y81.94 E-.01385
G1 X68.573 Y81.94 E-.78615
;WIPE_END
G1 Z.6 F720
G1 X65.104 Y138.387 F10800
G1 Z.2 F720
G1 E.8 F2100
M204 S800
G1 F1200
G1 X117.689 Y138.39 E1.64877
G1 X118.71 Y138.584 E.03259
G1 X119.688 Y139 E.03332
G1 X120.812 Y139.896 E.04507
G1 X121.705 Y141.234 E.05044
G1 X122.113 Y142.779 E.0501
G1 X122.113 Y189.247 E1.45697
G1 X121.494 Y191.21 E.06454
G1 X121.035 Y191.845 E.02457
G1 X120.408 Y192.493 E.02827
G1 X119.163 Y193.248 E.04565
G1 X117.718 Y193.613 E.04673
G1 X58.853 Y193.613 E1.84567
G1 X56.89 Y192.994 E.06454
G1 X56.255 Y192.535 E.02457
G1 X55.607 Y191.908 E.02827
G1 X54.852 Y190.663 E.04565
G1 X54.487 Y189.218 E.04673
G1 X54.487 Y142.753 E1.45688
G1 X55.106 Y140.79 E.06454
G1 X55.565 Y140.155 E.02457
G1 X56.192 Y139.507 E.02827
G1 X57.437 Y138.752 E.04565
G1 X58.882 Y138.386 E.04674
G1 X65.044 Y138.387 E.19321
M204 S1000
G1 X65.044 Y138.764 F10800
M204 S800
G1 F1200
G1 X117.671 Y138.767 E1.65008
G1 X118.617 Y138.95 E.03021
M73 P2 R169
G1 X119.515 Y139.336 E.03065
G1 X120.553 Y140.171 E.04177
G1 X121.349 Y141.362 E.04492
G1 X121.736 Y142.804 E.04681
G1 X121.736 Y189.218 E1.45528
G1 X121.17 Y191.015 E.05907
G1 X120.754 Y191.593 E.02233
G1 X120.154 Y192.213 E.02705
G1 X118.994 Y192.91 E.04243
G1 X117.695 Y193.236 E.04199
G1 X58.882 Y193.236 E1.84404
G1 X57.085 Y192.67 E.05907
G1 X56.507 Y192.254 E.02233
G1 X55.887 Y191.654 E.02705
G1 X55.19 Y190.494 E.04243
G1 X54.864 Y189.195 E.04199
G1 X54.864 Y142.782 E1.45525
G1 X55.43 Y140.985 E.05907
G1 X55.846 Y140.407 E.02233
G1 X56.446 Y139.787 E.02705
G1 X57.606 Y139.09 E.04243
G1 X58.905 Y138.764 E.04199
G1 X64.984 Y138.764 E.1906
M204 S1000
G1 X64.984 Y139.141 F10800
M204 S800
G1 F1200
G1 X117.652 Y139.144 E1.65137
G1 X118.524 Y139.316 E.02787
G1 X119.34 Y139.671 E.0279
G1 X120.293 Y140.445 E.03849
G1 X121.017 Y141.543 E.04124
G1 X121.359 Y142.828 E.04169
G1 X121.359 Y189.189 E1.45362
G1 X120.846 Y190.82 E.05361
G1 X120.473 Y191.341 E.02009
G1 X119.9 Y191.933 E.02583
G1 X118.873 Y192.552 E.0376
G1 X117.671 Y192.859 E.0389
G1 X58.911 Y192.859 E1.84238
G1 X57.28 Y192.346 E.05361
G1 X56.759 Y191.973 E.02009
G1 X56.167 Y191.4 E.02583
G1 X55.548 Y190.373 E.0376
G1 X55.241 Y189.171 E.0389
G1 X55.241 Y142.811 E1.45359
G1 X55.754 Y141.18 E.05361
G1 X56.127 Y140.659 E.02009
G1 X56.7 Y140.067 E.02583
G1 X57.727 Y139.448 E.0376
G1 X58.929 Y139.141 E.0389
G1 X64.924 Y139.141 E.18797
M204 S1000
G1 X64.924 Y139.518 F10800
M204 S800
G1 F1200
G1 X117.633 Y139.521 E1.65265
G1 X118.429 Y139.681 E.02546
G1 X119.164 Y140.005 E.02519
G1 X120.03 Y140.717 E.03515
G1 X120.685 Y141.723 E.03764
G1 X120.982 Y142.852 E.0366
G1 X120.982 Y189.161 E1.45199
G1 X120.522 Y190.626 E.04815
G1 X120.192 Y191.089 E.01783
G1 X119.647 Y191.653 E.02459
G1 X118.704 Y192.214 E.0344
G1 X117.648 Y192.482 E.03416
G1 X58.939 Y192.482 E1.84078
G1 X57.474 Y192.022 E.04815
G1 X57.011 Y191.692 E.01783
G1 X56.447 Y191.147 E.02459
G1 X55.886 Y190.204 E.0344
G1 X55.618 Y189.148 E.03416
G1 X55.618 Y142.839 E1.45199
G1 X56.078 Y141.374 E.04815
G1 X56.953 Y140.347 E.0423
G1 X57.896 Y139.786 E.0344
G1 X58.953 Y139.518 E.03419
G1 X64.864 Y139.518 E.18534
M204 S1000
G1 X64.864 Y139.895 F10800
M204 S800
G1 F1200
G1 X117.614 Y139.898 E1.65394
G1 X118.296 Y140.035 E.02181
M73 P2 R168
G1 X118.987 Y140.339 E.02367
G1 X119.767 Y140.988 E.03181
G1 X120.329 Y141.85 E.03226
G1 X120.605 Y142.878 E.03337
G1 X120.605 Y189.132 E1.45026
G1 X120.196 Y190.433 E.04276
G1 X119.393 Y191.373 E.03876
G1 X118.583 Y191.856 E.02957
G1 X117.623 Y192.105 E.0311
G1 X58.968 Y192.105 E1.83909
G1 X57.667 Y191.696 E.04276
G1 X56.727 Y190.893 E.03876
G1 X56.244 Y190.083 E.02957
G1 X55.995 Y189.123 E.0311
G1 X55.995 Y142.868 E1.45029
G1 X56.404 Y141.567 E.04276
G1 X57.207 Y140.627 E.03876
G1 X58.017 Y140.144 E.02957
G1 X58.977 Y139.895 E.0311
G1 X64.804 Y139.895 E.1827
M204 S1000
G1 X64.804 Y140.272 F10800
M204 S800
G1 F1200
G1 X117.595 Y140.276 E1.65522
G1 X118.199 Y140.4 E.01933
G1 X118.808 Y140.672 E.02091
G1 X119.501 Y141.257 E.02844
G1 X119.995 Y142.028 E.02871
G1 X120.228 Y142.902 E.02836
G1 X120.228 Y189.103 E1.4486
G1 X119.871 Y190.241 E.0374
G1 X119.629 Y190.587 E.01324
G1 X119.139 Y191.093 E.02209
G1 X118.46 Y191.499 E.02481
G1 X117.598 Y191.728 E.02796
G1 X58.997 Y191.728 E1.83739
G1 X57.859 Y191.371 E.0374
G1 X57.513 Y191.129 E.01324
G1 X57.007 Y190.639 E.02209
G1 X56.601 Y189.96 E.02481
G1 X56.372 Y189.098 E.02796
G1 X56.372 Y142.897 E1.4486
G1 X56.729 Y141.759 E.0374
G1 X57.461 Y140.907 E.03522
G1 X58.14 Y140.501 E.02481
G1 X59.002 Y140.272 E.02796
G1 X64.744 Y140.272 E.18004
M204 S1000
G1 X64.744 Y140.649 F10800
M204 S800
G1 F1200
G1 X117.574 Y140.653 E1.65645
G1 X118.099 Y140.764 E.01682
G1 X118.627 Y141.004 E.01819
G1 X119.234 Y141.525 E.02508
G1 X119.639 Y142.156 E.02351
G1 X119.851 Y142.928 E.0251
G1 X119.851 Y189.074 E1.44688
G1 X119.544 Y190.05 E.03208
