; generated by PrusaSlicer 2.9.2 on 2025-06-08 at 11:43:18 UTC


;
;
; 

; external perimeters extrusion width = 0.60mm
; perimeters extrusion width = 0.43mm
; infill extrusion width = 0.45mm
; solid infill extrusion width = 0.70mm
; top infill extrusion width = 0.45mm
; support material extrusion width = 0.37mm
; first layer extrusion width = 0.42mm

M73 P0 R369
M201 X9000 Y9000 Z500 E10000 ; sets maximum accelerations, mm/sec^2
M203 X500 Y500 Z12 E120 ; sets maximum feedrates, mm / sec
M204 S2000 T1500 ; sets acceleration (S) and retract acceleration (R), mm/sec^2
M205 X10.00 Y10.00 Z0.20 E4.50 ; sets the jerk limits, mm/sec
M205 S0 T0 ; sets the minimum extruding and travel feed rate, mm/sec

; printing object TOP Diffuser Cover V1.stl id:0 copy 0
; stop printing object TOP Diffuser Cover V1.stl id:0 copy 0

;TYPE:Custom
M862.3 P "MK2.5SMMU2S" ; printer model check
M862.1 P0.4 ; nozzle diameter check
M115 U3.14.1 ; tell printer latest fw version
G90 ; use absolute coordinates
M83 ; extruder relative mode
M104 S215 ; set extruder temp
M140 S60 ; set bed temp
Tx
M190 S60 ; wait for bed temp
M109 S215 ; wait for extruder temp
G28 W ; home all without mesh bed level
G80 X10.6669 Y44.9344 W235.622 H115.752 ; mesh bed levelling

;go outside print area
G1 Y-3 F1000
G1 Z0.4 F1000
; select extruder
Tc
; purge line
G1 X55 F2000
G1 Z0.3 F1000
G92 E0
G1 X240 E25 F2200
G1 Y-2 F1000
G1 X55 E25 F1400
G1 Z0.2 F1000
G1 X5 E4 F1000
G92 E0
G21 ; set units to millimeters
G90 ; use absolute coordinates
M83 ; use relative distances for extrusion

M900 K0.05 ; Filament gcode LA 1.5
M900 K30 ; Filament gcode LA 1.0




M107
;LAYER_CHANGE
;Z:0.2
;HEIGHT:0.2
G1 E-.8 F2100
M73 P0 R368
G1 Z.6 F720
G1 X12.805 Y65.395 F10800
G1 Z.2 F720
G1 E.8 F2100
M204 S800
;TYPE:Skirt/Brim
;WIDTH:0.42
G1 F1200
G1 X137.985 Y45.192 E3.97572
G1 X139.499 Y45.123 E.04752
G1 X228.291 Y45.123 E2.78401
G1 X229.995 Y45.212 E.0535
G1 X231.489 Y45.433 E.04735
G1 X233 Y45.796 E.04872
G1 X234.613 Y46.352 E.05349
G1 X235.988 Y46.975 E.04733
G1 X237.341 Y47.742 E.04876
G1 X238.738 Y48.72 E.05347
G1 X239.921 Y49.729 E.04875
G1 X241.12 Y50.969 E.05408
G1 X242.062 Y52.149 E.04734
G1 X242.919 Y53.446 E.04874
G1 X243.72 Y54.952 E.05348
G1 X244.3 Y56.346 E.04734
G1 X244.767 Y57.829 E.04875
G1 X245.122 Y59.498 E.0535
G1 X245.299 Y61.042 E.04873
G1 X246.1 Y143.368 E2.5814
G1 X246.031 Y144.939 E.04931
G1 X245.671 Y147.213 E.07219
G1 X245.055 Y149.293 E.06802
G1 X244.11 Y151.412 E.07275
G1 X242.861 Y153.42 E.07415
G1 X241.481 Y155.094 E.06802
G1 X239.783 Y156.676 E.07277
G1 X237.848 Y158.036 E.07416
G1 X235.924 Y159.037 E.068
G1 X234.313 Y159.655 E.0541
G1 X232.605 Y160.116 E.05547
G1 X231.053 Y160.375 E.04933
G1 X229.288 Y160.496 E.05547
G1 X140.26 Y160.498 E2.79141
G1 X138.815 Y160.435 E.04535
G1 X15.135 Y142.526 E3.91834
G1 X13.902 Y141.907 E.04326
G1 X11.496 Y139.502 E.10666
G1 X10.855 Y137.954 E.05253
G1 X10.855 Y67.666 E2.20383
G1 X11.496 Y66.119 E.0525
G1 X12.752 Y65.424 E.04501
M204 S1000
;WIPE_START
G1 F8640
G1 X12.805 Y65.395 E-.01395
G1 X16.166 Y64.853 E-.78605
;WIPE_END
G1 Z.6 F720
G1 X124.908 Y62.049 F10800
G1 Z.2 F720
G1 E.8 F2100
M204 S800
G1 F1200
G1 X124.98 Y60.759 E.04051
G1 X125.158 Y59.521 E.03922
G1 X125.44 Y58.303 E.0392
G1 X125.827 Y57.11 E.03932
G1 X126.695 Y55.208 E.06555
G1 X127.343 Y54.135 E.0393
G1 X128.078 Y53.123 E.03922
G1 X129.487 Y51.587 E.06535
G1 X130.42 Y50.778 E.03872
G1 X132.329 Y49.491 E.07219
G1 X133.421 Y48.932 E.03846
G1 X135.161 Y48.263 E.05845
G1 X136.36 Y47.944 E.0389
G1 X137.57 Y47.729 E.03853
G1 X139.425 Y47.598 E.05831
G1 X140.45 Y47.627 E.03215
G1 X142.704 Y47.949 E.07139
G1 X144.847 Y48.603 E.07025
G1 X146.779 Y49.528 E.06716
G1 X148.561 Y50.73 E.0674
G1 X150.22 Y52.258 E.07072
G1 X151.463 Y53.789 E.06183
G1 X152.06 Y54.707 E.03433
G1 X153.072 Y56.743 E.07129
G1 X153.734 Y58.793 E.06754
G1 X214.053 Y58.793 E1.89126
G1 X214.702 Y56.734 E.06769
G1 X215.451 Y55.159 E.05468
G1 X215.898 Y54.402 E.02756
G1 X216.888 Y53.021 E.05328
G1 X218.484 Y51.341 E.07266
G1 X219.715 Y50.35 E.04955
G1 X220.535 Y49.8 E.03096
G1 X222.704 Y48.691 E.07638
G1 X224.515 Y48.083 E.0599
G1 X226.812 Y47.669 E.07318
G1 X228.51 Y47.6 E.05328
G1 X230.302 Y47.743 E.05637
G1 X232.105 Y48.116 E.05773
G1 X233.861 Y48.718 E.0582
G1 X235.526 Y49.538 E.05819
G1 X237.163 Y50.631 E.06172
G1 X237.899 Y51.236 E.02987
G1 X239.277 Y52.622 E.06128
G1 X240.475 Y54.206 E.06227
G1 X241.391 Y55.819 E.05816
G1 X241.824 Y56.798 E.03356
G1 X242.43 Y58.678 E.06193
G1 X242.752 Y60.412 E.0553
G1 X242.864 Y62.21 E.05648
G1 X242.734 Y64.153 E.06106
G1 X242.351 Y66.049 E.06065
G1 X241.711 Y67.899 E.06138
G1 X240.873 Y69.574 E.05872
G1 X239.789 Y71.179 E.06073
G1 X238.574 Y72.554 E.05753
G1 X237.449 Y73.567 E.04747
G1 X235.964 Y74.624 E.05715
G1 X234.689 Y75.33 E.0457
G1 X232.841 Y76.089 E.06264
G1 X232.841 Y129.317 E1.66893
G1 X234.464 Y129.851 E.05357
G1 X236.532 Y130.88 E.07242
G1 X237.576 Y131.569 E.03922
G1 X238.578 Y132.362 E.04007
G1 X240.192 Y134 E.0721
G1 X241.519 Y135.852 E.07144
G1 X242.54 Y137.884 E.0713
G1 X243.261 Y140.167 E.07507
G1 X243.589 Y142.386 E.07033
G1 X243.623 Y143.652 E.03971
G1 X243.556 Y144.827 E.0369
G1 X243.158 Y147.072 E.07149
G1 X242.816 Y148.203 E.03705
G1 X242.373 Y149.327 E.03788
G1 X241.298 Y151.321 E.07103
G1 X240.516 Y152.421 E.04232
G1 X239.011 Y154.066 E.06991
G1 X237.987 Y154.942 E.04225
G1 X236.279 Y156.087 E.06447
G1 X234.48 Y156.961 E.06271
G1 X232.568 Y157.583 E.06304
G1 X230.495 Y157.947 E.06599
G1 X228.409 Y158.01 E.06543
G1 X227.275 Y157.919 E.03567
G1 X225.243 Y157.528 E.06488
G1 X224.237 Y157.221 E.03298
G1 X222.343 Y156.412 E.06458
G1 X220.584 Y155.348 E.06446
G1 X218.99 Y154.046 E.06453
G1 X217.552 Y152.477 E.06673
G1 X216.391 Y150.776 E.06457
G1 X215.487 Y148.946 E.064
G1 X215.042 Y147.705 E.04134
G1 X154.235 Y147.705 E1.90656
G1 X153.536 Y149.564 E.06227
G1 X152.411 Y151.561 E.07187
G1 X150.984 Y153.36 E.072
G1 X149.272 Y154.93 E.07283
G1 X147.369 Y156.189 E.07154
G1 X145.316 Y157.128 E.07078
G1 X143.088 Y157.751 E.07254
G1 X140.878 Y158.01 E.06977
G1 X138.512 Y157.915 E.07424
G1 X137.392 Y157.734 E.03557
G1 X135.254 Y157.13 E.06966
G1 X133.251 Y156.22 E.06898
G1 X132.208 Y155.589 E.03822
G1 X131.286 Y154.925 E.03563
G1 X129.625 Y153.408 E.07053
G1 X128.749 Y152.384 E.04225
G1 X127.63 Y150.722 E.06282
G1 X126.741 Y148.904 E.06345
G1 X126.391 Y147.946 E.03198
G1 X126.095 Y146.915 E.03363
G1 X125.753 Y144.973 E.06183
G1 X125.677 Y143.903 E.03363
G1 X125.744 Y141.932 E.06184
G1 X126.097 Y139.897 E.06476
G1 X126.729 Y137.945 E.06433
G1 X127.628 Y136.1 E.06435
G1 X128.778 Y134.398 E.0644
G1 X130.144 Y132.885 E.06391
G1 X131.695 Y131.585 E.06345
G1 X133.411 Y130.512 E.06346
G1 X135.503 Y129.598 E.07158
G1 X135.503 Y76.253 E1.6726
G1 X133.836 Y75.674 E.05533
G1 X132.712 Y75.141 E.039
G1 X130.823 Y73.954 E.06995
G1 X129.066 Y72.421 E.07311
G1 X127.598 Y70.661 E.07186
G1 X126.404 Y68.652 E.07328
G1 X125.54 Y66.465 E.07373
G1 X125.034 Y64.129 E.07494
G1 X124.912 Y62.109 E.06345
M204 S1000
G1 X125.288 Y62.087 F10800
M204 S800
G1 F1200
G1 X125.285 Y62.048 E.00123
G1 X125.354 Y60.804 E.03906
G1 X125.527 Y59.598 E.0382
G1 X125.801 Y58.411 E.0382
G1 X126.572 Y56.297 E.07055
G1 X127.653 Y54.35 E.06982
G1 X128.369 Y53.362 E.03826
G1 X129.75 Y51.857 E.06404
G1 X131.56 Y50.409 E.07268
G1 X132.507 Y49.823 E.03492
G1 X134.419 Y48.921 E.06629
G1 X136.435 Y48.314 E.06601
G1 X137.615 Y48.103 E.03758
M73 P0 R367
G1 X139.433 Y47.975 E.05714
G1 X141.634 Y48.133 E.06919
G1 X143.682 Y48.597 E.06584
G1 X145.756 Y49.413 E.06988
G1 X147.419 Y50.367 E.06011
G1 X148.322 Y51.021 E.03496
G1 X149.94 Y52.51 E.06894
G1 X151.158 Y54.011 E.06061
G1 X151.74 Y54.906 E.03347
G1 X152.725 Y56.89 E.06945
G1 X153.074 Y57.853 E.03212
G1 X153.418 Y59.17 E.04268
G1 X214.349 Y59.17 E1.91045
G1 X214.553 Y58.332 E.02704
G1 X215.05 Y56.88 E.04812
G1 X215.784 Y55.336 E.0536
G1 X217.178 Y53.262 E.07835
G1 X218.732 Y51.624 E.07079
G1 X219.939 Y50.653 E.04857
G1 X220.731 Y50.123 E.02988
G1 X222.853 Y49.038 E.07473
G1 X224.608 Y48.449 E.05804
G1 X226.844 Y48.045 E.07124
G1 X228.498 Y47.977 E.0519
G1 X230.243 Y48.115 E.05488
G1 X231.204 Y48.285 E.0306
G1 X232.83 Y48.732 E.05287
G1 X234.54 Y49.44 E.05803
G1 X236.149 Y50.367 E.05822
G1 X237.644 Y51.515 E.0591
G1 X238.379 Y52.207 E.03165
G1 X239.578 Y53.588 E.05734
G1 X240.164 Y54.418 E.03186
G1 X241.054 Y55.989 E.05661
G1 X241.471 Y56.932 E.03233
G1 X241.803 Y57.853 E.0307
G1 X242.258 Y59.672 E.05879
G1 X242.453 Y61.232 E.04929
G1 X242.453 Y63.18 E.06108
G1 X242.206 Y65.023 E.0583
G1 X241.706 Y66.861 E.05972
G1 X240.962 Y68.621 E.05991
G1 X240.059 Y70.163 E.05603
G1 X239.487 Y70.953 E.03058
G1 X238.303 Y72.292 E.05604
G1 X236.57 Y73.764 E.07129
G1 X234.528 Y74.989 E.07466
G1 X232.464 Y75.801 E.06954
G1 X232.464 Y129.605 E1.68699
G1 X234.316 Y130.198 E.06097
G1 X236.331 Y131.199 E.07055
G1 X237.349 Y131.87 E.03823
G1 X239.149 Y133.414 E.07436
G1 X240.58 Y135.112 E.06962
G1 X241.707 Y136.967 E.06806
G1 X242.568 Y139.064 E.07108
G1 X242.895 Y140.259 E.03885
G1 X243.213 Y142.42 E.06849
G1 X243.246 Y143.654 E.03871
G1 X243.031 Y145.882 E.07018
G1 X242.463 Y148.072 E.07094
G1 X242.031 Y149.168 E.03694
G1 X240.986 Y151.109 E.06912
G1 X240.222 Y152.183 E.04133
G1 X238.76 Y153.785 E.068
G1 X237.759 Y154.641 E.0413
G1 X236.097 Y155.757 E.06277
G1 X234.333 Y156.614 E.06149
G1 X232.47 Y157.219 E.06142
G1 X230.45 Y157.573 E.0643
G1 X228.418 Y157.633 E.06374
G1 X227.326 Y157.545 E.03435
G1 X225.334 Y157.162 E.0636
G1 X224.367 Y156.866 E.03171
G1 X222.52 Y156.08 E.06294
G1 X220.807 Y155.044 E.06277
G1 X219.254 Y153.776 E.06286
G1 X217.844 Y152.238 E.06542
G1 X216.713 Y150.58 E.06293
G1 X215.834 Y148.796 E.06236
G1 X215.334 Y147.328 E.04862
G1 X153.958 Y147.328 E1.9244
G1 X153.197 Y149.399 E.06918
G1 X152.102 Y151.345 E.07001
G1 X150.703 Y153.108 E.07057
G1 X149.046 Y154.629 E.07052
G1 X147.179 Y155.863 E.07017
G1 X145.179 Y156.777 E.06895
G1 X143.008 Y157.382 E.07066
G1 X140.856 Y157.634 E.06794
G1 X138.565 Y157.541 E.07189
G1 X137.474 Y157.366 E.03464
G1 X135.391 Y156.779 E.06785
G1 X133.426 Y155.886 E.06767
G1 X132.422 Y155.278 E.0368
G1 X131.524 Y154.633 E.03467
G1 X129.906 Y153.157 E.06867
G1 X129.05 Y152.157 E.04127
G1 X127.953 Y150.528 E.06158
G1 X127.088 Y148.757 E.0618
G1 X126.747 Y147.823 E.03118
G1 X126.463 Y146.83 E.03238
G1 X126.127 Y144.927 E.06059
G1 X126.054 Y143.896 E.03241
G1 X126.119 Y141.964 E.06061
G1 X126.462 Y139.994 E.0627
G1 X127.076 Y138.091 E.0627
G1 X127.951 Y136.294 E.06267
G1 X129.071 Y134.636 E.06273
G1 X130.401 Y133.161 E.06227
G1 X131.911 Y131.894 E.0618
G1 X133.583 Y130.848 E.06184
G1 X134.476 Y130.411 E.03117
G1 X135.88 Y129.879 E.04708
G1 X135.88 Y75.968 E1.69034
G1 X133.975 Y75.323 E.06306
G1 X132.88 Y74.804 E.03799
G1 X131.042 Y73.648 E.06808
G1 X129.34 Y72.163 E.07082
G1 X127.91 Y70.449 E.06999
G1 X126.745 Y68.493 E.07138
G1 X125.903 Y66.363 E.07181
G1 X125.409 Y64.086 E.07305
G1 X125.291 Y62.147 E.06091
M204 S1000
G1 X125.667 Y62.124 F10800
M204 S800
G1 F1200
G1 X125.662 Y62.046 E.00245
G1 X125.729 Y60.849 E.03759
G1 X125.896 Y59.675 E.03718
G1 X126.163 Y58.519 E.0372
G1 X126.529 Y57.384 E.03739
G1 X127.362 Y55.559 E.0629
G1 X128.661 Y53.601 E.07367
G1 X130.013 Y52.128 E.06269
G1 X130.902 Y51.358 E.03688
G1 X132.686 Y50.155 E.06747
G1 X133.727 Y49.621 E.03668
G1 X135.395 Y48.98 E.05603
G1 X137.661 Y48.477 E.07278
G1 X139.441 Y48.352 E.05595
G1 X140.413 Y48.381 E.03049
G1 X142.552 Y48.688 E.06775
G1 X144.584 Y49.311 E.06664
G1 X145.598 Y49.756 E.03472
G1 X147.203 Y50.676 E.058
G1 X148.942 Y52.047 E.06943
G1 X150.293 Y53.491 E.062
G1 X151.42 Y55.105 E.06172
G1 X152.373 Y57.025 E.06721
G1 X152.713 Y57.963 E.03128
G1 X153.11 Y59.547 E.0512
G1 X214.646 Y59.547 E1.92942
G1 X215.14 Y57.716 E.05946
G1 X215.699 Y56.334 E.04674
G1 X216.536 Y54.806 E.05463
G1 X217.962 Y52.925 E.07401
G1 X219.502 Y51.462 E.0666
G1 X220.927 Y50.445 E.05489
G1 X223.002 Y49.384 E.07307
G1 X224.701 Y48.814 E.05619
G1 X226.875 Y48.421 E.06927
G1 X228.486 Y48.354 E.05056
G1 X230.196 Y48.49 E.05379
G1 X231.906 Y48.843 E.05475
G1 X233.583 Y49.419 E.0556
G1 X235.14 Y50.186 E.05442
G1 X236.713 Y51.236 E.0593
G1 X238.106 Y52.468 E.05831
G1 X239.281 Y53.821 E.05619
G1 X239.845 Y54.62 E.03066
G1 X240.718 Y56.159 E.05548
G1 X241.119 Y57.067 E.03112
G1 X241.442 Y57.963 E.02986
G1 X241.886 Y59.735 E.05728
G1 X242.076 Y61.251 E.0479
G1 X242.078 Y63.148 E.05948
G1 X241.837 Y64.943 E.05679
G1 X241.351 Y66.732 E.05813
G1 X240.627 Y68.447 E.05837
G1 X239.743 Y69.958 E.05489
G1 X239.192 Y70.717 E.02941
G1 X238.039 Y72.022 E.0546
G1 X236.355 Y73.454 E.06931
G1 X234.358 Y74.652 E.07302
G1 X232.087 Y75.522 E.07625
G1 X232.087 Y129.893 E1.70476
G1 X234.17 Y130.546 E.06845
G1 X236.144 Y131.526 E.0691
G1 X237.121 Y132.17 E.03669
G1 X238.875 Y133.674 E.07244
G1 X240.277 Y135.338 E.06822
G1 X241.373 Y137.143 E.06621
G1 X242.211 Y139.186 E.06924
G1 X242.529 Y140.351 E.03786
G1 X242.838 Y142.453 E.06662
G1 X242.869 Y143.641 E.03726
G1 X242.659 Y145.823 E.06873
G1 X242.104 Y147.955 E.06908
G1 X241.689 Y149.009 E.03552
G1 X240.665 Y150.91 E.0677
G1 X239.929 Y151.946 E.03985
G1 X238.508 Y153.503 E.06609
G1 X237.532 Y154.34 E.04031
G1 X235.914 Y155.427 E.06112
G1 X234.186 Y156.266 E.06023
G1 X232.373 Y156.855 E.05977
G1 X230.406 Y157.198 E.0626
G1 X228.428 Y157.256 E.06205
G1 X227.377 Y157.172 E.03306
G1 X225.437 Y156.8 E.06194
G1 X224.496 Y156.512 E.03086
G1 X222.698 Y155.747 E.06127
G1 X221.03 Y154.739 E.06111
G1 X219.517 Y153.505 E.06122
G1 X218.135 Y151.998 E.06411
G1 X217.036 Y150.385 E.0612
G1 X216.18 Y148.648 E.06072
G1 X215.617 Y146.951 E.05606
G1 X153.682 Y146.951 E1.94193
G1 X153.289 Y148.194 E.04087
G1 X152.858 Y149.234 E.0353
G1 X151.793 Y151.129 E.06816
G1 X150.422 Y152.857 E.06916
G1 X148.819 Y154.327 E.06819
G1 X146.99 Y155.537 E.06876
G1 X145.043 Y156.425 E.0671
G1 X142.928 Y157.014 E.06884
G1 X140.834 Y157.257 E.0661
G1 X138.617 Y157.168 E.06957
G1 X137.555 Y156.997 E.03373
G1 X135.527 Y156.427 E.06605
G1 X133.602 Y155.553 E.06629
G1 X132.624 Y154.96 E.03586
G1 X131.762 Y154.34 E.03329
G1 X130.187 Y152.905 E.06681
G1 X129.351 Y151.929 E.04029
G1 X128.277 Y150.334 E.06029
G1 X127.435 Y148.609 E.06019
G1 X127.104 Y147.7 E.03033
G1 X126.83 Y146.745 E.03115
G1 X126.501 Y144.881 E.05935
G1 X126.431 Y143.889 E.03118
G1 X126.495 Y141.996 E.05939
G1 X126.829 Y140.078 E.06104
G1 X127.429 Y138.226 E.06104
G1 X128.275 Y136.488 E.06061
G1 X129.364 Y134.873 E.06107
G1 X130.658 Y133.437 E.06061
G1 X132.128 Y132.203 E.06018
G1 X133.755 Y131.183 E.06021
G1 X134.624 Y130.758 E.03033
G1 X136.257 Y130.152 E.05461
G1 X136.257 Y75.684 E1.70781
G1 X134.115 Y74.973 E.07076
G1 X132.092 Y73.911 E.07164
G1 X130.473 Y72.71 E.0632
G1 X129.615 Y71.904 E.03691
G1 X128.221 Y70.236 E.06816
G1 X127.087 Y68.334 E.06943
G1 X126.266 Y66.26 E.06994
G1 X125.783 Y64.042 E.07117
G1 X125.671 Y62.184 E.05836
M204 S1000
G1 X126.047 Y62.161 F10800
M204 S800
G1 F1200
G1 X126.04 Y62.045 E.00364
G1 X126.103 Y60.894 E.03614
G1 X126.524 Y58.627 E.0723
G1 X127.263 Y56.598 E.06771
G1 X128.29 Y54.753 E.06621
G1 X128.953 Y53.84 E.03538
G1 X130.276 Y52.398 E.06136
G1 X131.982 Y51.034 E.06849
G1 X132.865 Y50.487 E.03257
G1 X134.689 Y49.625 E.06326
G1 X136.583 Y49.054 E.06203
G1 X137.707 Y48.852 E.03581
G1 X139.449 Y48.73 E.05475
G1 X141.538 Y48.882 E.06567
G1 X143.462 Y49.318 E.06186
G1 X145.428 Y50.092 E.06625
G1 X146.999 Y50.993 E.05678
G1 X147.843 Y51.605 E.03269
G1 X149.388 Y53.025 E.06579
G1 X150.54 Y54.444 E.05731
G1 X151.092 Y55.292 E.03173
G1 X152.021 Y57.16 E.06541
G1 X152.606 Y58.965 E.05949
G1 X152.801 Y59.924 E.03068
G1 X214.975 Y59.924 E1.94942
G1 X215.279 Y58.535 E.04458
G1 X216.037 Y56.5 E.06809
G1 X216.851 Y55.012 E.05318
G1 X217.765 Y53.737 E.04919
G1 X218.755 Y52.64 E.04633
G1 X220.379 Y51.266 E.0667
G1 X222.321 Y50.103 E.07097
G1 X223.913 Y49.446 E.054
G1 X226.101 Y48.902 E.07069
G1 X227.755 Y48.738 E.05211
G1 X229.218 Y48.764 E.04588
G1 X231.05 Y49.023 E.05801
G1 X232.575 Y49.442 E.04959
G1 X233.444 Y49.77 E.02912
G1 X234.946 Y50.51 E.0525
G1 X236.488 Y51.539 E.05812
