; generated by PrusaSlicer 2.9.2 on 2025-05-05 at 12:00:09 UTC


;
;
; 

; external perimeters extrusion width = 0.60mm
; perimeters extrusion width = 0.43mm
; infill extrusion width = 0.45mm
; solid infill extrusion width = 0.70mm
; top infill extrusion width = 0.45mm
; first layer extrusion width = 0.42mm

M73 P0 R76
M201 X9000 Y9000 Z500 E10000 ; sets maximum accelerations, mm/sec^2
M203 X500 Y500 Z12 E120 ; sets maximum feedrates, mm / sec
M204 S2000 T1500 ; sets acceleration (S) and retract acceleration (R), mm/sec^2
M205 X10.00 Y10.00 Z0.20 E4.50 ; sets the jerk limits, mm/sec
M205 S0 T0 ; sets the minimum extruding and travel feed rate, mm/sec

; printing object bohrlehre10mm.stl id:0 copy 0
; stop printing object bohrlehre10mm.stl id:0 copy 0

;TYPE:Custom
M862.3 P "MK2.5SMMU2S" ; printer model check
M862.1 P0.4 ; nozzle diameter check
M115 U3.14.1 ; tell printer latest fw version
G90 ; use absolute coordinates
M83 ; extruder relative mode
M104 S230 ; set extruder temp
M140 S85 ; set bed temp
Tx
M190 S85 ; wait for bed temp
M109 S230 ; wait for extruder temp
G28 W ; home all without mesh bed level
G80 X87.6229 Y77.6229 W74.7542 H54.7542 ; mesh bed levelling

;go outside print area
G1 Y-3 F1000
G1 Z0.4 F1000
; select extruder
Tc
; purge line
G1 X55 F2000
G1 Z0.3 F1000
G92 E0
G1 X240 E25 F2200
G1 Y-2 F1000
G1 X55 E25 F1400
G1 Z0.2 F1000
G1 X5 E4 F1000
G92 E0
G21 ; set units to millimeters
G90 ; use absolute coordinates
M83 ; use relative distances for extrusion

M900 K0.08 ; Filament gcode LA 1.5
M900 K45 ; Filament gcode LA 1.0




M107
;LAYER_CHANGE
;Z:0.2
;HEIGHT:0.2
G1 E-1 F2100
G1 Z.4 F720
G1 X88.202 Y78.752 F10800
G1 Z.2 F720
G1 E1 F2100
M204 S800
;TYPE:Skirt/Brim
;WIDTH:0.42
G1 F1200
G1 X89.235 Y77.949 E.04102
G1 X90 Y77.811 E.02437
G1 X160 Y77.811 E2.1948
G1 X161.248 Y78.202 E.04101
G1 X162.051 Y79.235 E.04102
G1 X162.189 Y80 E.02437
G1 X162.189 Y130 E1.56771
G1 X161.798 Y131.248 E.04101
G1 X160.765 Y132.051 E.04102
G1 X160 Y132.189 E.02437
G1 X90 Y132.189 E2.1948
G1 X88.752 Y131.798 E.04101
G1 X87.949 Y130.765 E.04102
G1 X87.811 Y130 E.02437
G1 X87.811 Y80 E1.56771
G1 X88.184 Y78.809 E.03913
M204 S1000
;WIPE_START
G1 F8640
G1 X88.202 Y78.752 E-.0138
G1 X89.235 Y77.949 E-.30211
G1 X90 Y77.811 E-.17949
G1 X92.185 Y77.811 E-.5046
;WIPE_END
G1 Z.4 F720
; printing object bohrlehre10mm.stl id:0 copy 0
G1 X137.529 Y98.877 F10800
G1 Z.2 F720
G1 E1 F2100
M204 S800
;TYPE:Perimeter
;WIDTH:0.419999
G1 F1200
G1 X138.395 Y99.297 E.03018
G1 X139.301 Y99.944 E.03491
G1 X140.093 Y100.743 E.03527
G1 X140.739 Y101.665 E.0353
G1 X141.22 Y102.683 E.0353
G1 X141.522 Y103.768 E.03531
G1 X141.637 Y104.888 E.0353
G1 X141.56 Y106.011 E.03529
G1 X141.295 Y107.106 E.03532
G1 X140.848 Y108.139 E.03529
G1 X140.233 Y109.083 E.03533
G1 X139.468 Y109.909 E.0353
G1 X138.574 Y110.593 E.03529
G1 X137.589 Y111.112 E.03491
G1 X136.508 Y111.464 E.03565
G1 X135.392 Y111.626 E.03536
G1 X134.312 Y111.599 E.03387
G1 X133.159 Y111.377 E.03682
G1 X132.107 Y110.974 E.03532
G1 X131.139 Y110.399 E.0353
G1 X130.282 Y109.668 E.03532
G1 X129.569 Y108.816 E.03483
G1 X128.997 Y107.831 E.03571
G1 X128.661 Y106.937 E.02995
G1 X128.548 Y106.556 E.01246
G1 X128.396 Y105.666 E.02831
G1 X128.382 Y104.443 E.03835
G1 X128.548 Y103.444 E.03175
G1 X128.661 Y103.063 E.01246
G1 X128.904 Y102.375 E.02288
G1 X129.28 Y101.661 E.0253
G1 X129.56 Y101.197 E.01699
G1 X130.127 Y100.493 E.02834
G1 X130.971 Y99.725 E.03578
G1 X131.909 Y99.126 E.0349
G1 X132.945 Y98.689 E.03525
G1 X134.042 Y98.432 E.03533
G1 X135.168 Y98.365 E.03537
G1 X136.287 Y98.488 E.0353
G1 X137.37 Y98.8 E.03534
G1 X137.475 Y98.851 E.00366
M204 S1000
G1 X137.375 Y99.217 F10800
M204 S800
G1 F1200
G1 X138.225 Y99.634 E.02969
G1 X139.076 Y100.247 E.03288
G1 X139.821 Y101.004 E.0333
G1 X140.427 Y101.876 E.03329
G1 X140.877 Y102.839 E.03333
G1 X141.157 Y103.863 E.03329
G1 X141.261 Y104.92 E.0333
G1 X141.184 Y105.979 E.03329
G1 X140.93 Y107.011 E.03332
G1 X140.505 Y107.984 E.03329
G1 X139.921 Y108.872 E.03332
G1 X139.196 Y109.648 E.0333
G1 X138.35 Y110.29 E.0333
G1 X137.419 Y110.775 E.03291
G1 X136.397 Y111.103 E.03365
G1 X135.344 Y111.252 E.03334
G1 X134.328 Y111.222 E.03187
G1 X133.239 Y111.009 E.03479
G1 X132.248 Y110.624 E.03333
G1 X131.337 Y110.078 E.0333
G1 X130.531 Y109.386 E.03331
G1 X129.862 Y108.579 E.03287
G1 X129.326 Y107.647 E.03371
G1 X129.017 Y106.811 E.02795
G1 X128.919 Y106.493 E.01043
G1 X128.768 Y105.603 E.0283
G1 X128.758 Y104.475 E.03537
G1 X128.919 Y103.507 E.03077
G1 X129.017 Y103.189 E.01043
G1 X129.259 Y102.5 E.0229
G1 X129.609 Y101.845 E.02329
G1 X129.854 Y101.433 E.01503
G1 X130.421 Y100.73 E.02832
G1 X131.22 Y100.009 E.03374
G1 X132.106 Y99.447 E.0329
G1 X133.086 Y99.038 E.0333
G1 X134.121 Y98.801 E.03329
G1 X135.184 Y98.741 E.03338
G1 X136.24 Y98.862 E.03333
G1 X137.259 Y99.16 E.03329
G1 X137.321 Y99.191 E.00217
M204 S1000
G1 X137.222 Y99.557 F10800
M204 S800
G1 F1200
G1 X138.055 Y99.97 E.02915
G1 X138.852 Y100.55 E.03091
G1 X139.548 Y101.265 E.03129
G1 X140.114 Y102.088 E.03132
G1 X140.533 Y102.994 E.0313
G1 X140.792 Y103.958 E.0313
G1 X140.885 Y104.952 E.0313
G1 X140.809 Y105.947 E.03129
G1 X140.565 Y106.916 E.03133
G1 X140.161 Y107.829 E.0313
G1 X139.609 Y108.66 E.03128
G1 X138.924 Y109.387 E.03132
G1 X138.126 Y109.987 E.0313
G1 X137.249 Y110.438 E.03092
G1 X136.286 Y110.743 E.03167
G1 X135.296 Y110.878 E.03133
G1 X134.344 Y110.845 E.02987
G1 X133.318 Y110.64 E.03281
G1 X132.389 Y110.274 E.03131
M73 P0 R75
G1 X131.535 Y109.757 E.0313
G1 X130.781 Y109.103 E.0313
G1 X130.156 Y108.342 E.03088
G1 X129.655 Y107.463 E.03172
G1 X129.291 Y106.43 E.03434
G1 X129.14 Y105.54 E.0283
G1 X129.14 Y104.46 E.03386
G1 X129.291 Y103.57 E.0283
G1 X129.373 Y103.314 E.00843
G1 X129.615 Y102.626 E.02287
G1 X129.938 Y102.028 E.02131
G1 X130.148 Y101.67 E.01301
G1 X130.714 Y100.967 E.0283
G1 X131.469 Y100.292 E.03175
G1 X132.304 Y99.769 E.03089
G1 X133.227 Y99.388 E.03131
G1 X134.201 Y99.169 E.0313
G1 X135.2 Y99.118 E.03136
G1 X136.192 Y99.237 E.03133
G1 X137.149 Y99.521 E.0313
G1 X137.168 Y99.53 E.00066
M204 S1000
G1 X137.068 Y99.896 F10800
M204 S800
;TYPE:External perimeter
G1 F1200
G1 X137.885 Y100.307 E.02868
G1 X138.628 Y100.853 E.02891
G1 X139.276 Y101.526 E.02929
G1 X139.802 Y102.299 E.02932
G1 X140.189 Y103.149 E.02928
G1 X140.428 Y104.053 E.02932
G1 X140.51 Y104.984 E.0293
G1 X140.433 Y105.915 E.02929
G1 X140.2 Y106.821 E.02933
G1 X139.817 Y107.673 E.02929
G1 X139.296 Y108.449 E.02931
G1 X138.651 Y109.126 E.02932
G1 X137.902 Y109.684 E.02929
G1 X137.079 Y110.102 E.02894
G1 X136.176 Y110.383 E.02965
G1 X135.249 Y110.504 E.02931
G1 X134.36 Y110.468 E.0279
G1 X133.398 Y110.271 E.03079
G1 X132.53 Y109.925 E.0293
G1 X131.733 Y109.436 E.02932
G1 X131.03 Y108.82 E.02931
G1 X130.449 Y108.105 E.02889
G1 X129.984 Y107.279 E.02972
G1 X129.663 Y106.367 E.03031
G1 X129.511 Y105.476 E.02834
G1 X129.509 Y104.555 E.02888
G1 X129.663 Y103.633 E.02931
G1 X129.728 Y103.439 E.00642
G1 X129.971 Y102.751 E.02288
G1 X130.441 Y101.906 E.03032
G1 X131.008 Y101.203 E.02832
G1 X131.718 Y100.575 E.02972
G1 X132.502 Y100.09 E.02891
G1 X133.368 Y99.738 E.02931
G1 X134.281 Y99.538 E.02931
G1 X135.217 Y99.495 E.02938
G1 X136.144 Y99.611 E.02929
G1 X137.013 Y99.874 E.02847
M204 S1000
;WIPE_START
G1 F8640
G1 X137.068 Y99.896 E-.01368
G1 X137.885 Y100.307 E-.21117
G1 X138.628 Y100.853 E-.2129
G1 X139.276 Y101.526 E-.21572
G1 X139.802 Y102.299 E-.21589
G1 X140.037 Y102.814 E-.13064
;WIPE_END
G1 Z.4 F720
G1 X115.266 Y88.88 F10800
G1 Z.2 F720
G1 E1 F2100
M204 S800
;TYPE:Perimeter
;WIDTH:0.408002
G1 F1200
G1 X114.938 Y88.855 E.00999
;WIDTH:0.419999
G1 X114.191 Y88.596 E.02479
G1 X113.531 Y88.16 E.0248
G1 X113.103 Y87.702 E.01965
G1 X112.916 Y87.466 E.00944
G1 X112.611 Y86.885 E.02057
G1 X112.463 Y86.352 E.01734
G1 X112.389 Y85.985 E.01174
G1 X112.389 Y85.329 E.02057
G1 X112.563 Y84.556 E.02484
G1 X112.907 Y83.863 E.02426
G1 X113.427 Y83.246 E.0253
G1 X114.071 Y82.781 E.02491
G1 X114.805 Y82.485 E.02481
G1 X115.571 Y82.375 E.02426
G1 X116.374 Y82.452 E.02529
G1 X117.122 Y82.718 E.02489
G1 X117.783 Y83.154 E.02483
G1 X118.32 Y83.736 E.02483
G1 X118.703 Y84.429 E.02483
G1 X118.908 Y85.193 E.0248
G1 X118.924 Y85.985 E.02484
G1 X118.751 Y86.757 E.02481
G1 X118.703 Y86.885 E.00429
G1 X118.398 Y87.466 E.02057
G1 X117.885 Y88.069 E.02482
G1 X117.243 Y88.532 E.02482
G1 X116.508 Y88.826 E.02482
;WIDTH:0.414165
G1 X115.722 Y88.915 E.02442
;WIDTH:0.408002
G1 X115.325 Y88.885 E.01209
M204 S1000
G1 X115.309 Y88.524 F10800
M204 S800
;TYPE:External perimeter
;WIDTH:0.419999
G1 F1200
G1 X114.983 Y88.487 E.01029
G1 X114.325 Y88.243 E.022
G1 X113.745 Y87.849 E.02198
G1 X113.386 Y87.452 E.01678
G1 X113.25 Y87.291 E.00661
G1 X112.945 Y86.71 E.02057
G1 X112.772 Y86.03 E.022
G1 X112.766 Y85.329 E.02198
G1 X112.929 Y84.647 E.02199
G1 X113.241 Y84.037 E.02148
G1 X113.71 Y83.495 E.02247
G1 X114.285 Y83.092 E.02202
G1 X114.939 Y82.838 E.022
G1 X115.617 Y82.749 E.02144
G1 X116.33 Y82.827 E.02249
G1 X116.989 Y83.07 E.02202
G1 X117.569 Y83.464 E.02198
G1 X118.038 Y83.986 E.022
G1 X118.369 Y84.604 E.02198
G1 X118.542 Y85.284 E.022
G1 X118.547 Y85.985 E.02198
G1 X118.369 Y86.71 E.02341
G1 X118.064 Y87.291 E.02057
G1 X117.603 Y87.819 E.02198
G1 X117.029 Y88.222 E.02199
G1 X116.375 Y88.476 E.022
G1 X115.68 Y88.566 E.02197
G1 X115.368 Y88.531 E.00984
M204 S1000
;WIPE_START
G1 F8640
G1 X115.309 Y88.524 E-.01372
G1 X114.983 Y88.487 E-.07576
G1 X114.325 Y88.243 E-.16204
G1 X113.745 Y87.849 E-.1619
G1 X113.386 Y87.452 E-.12359
G1 X113.25 Y87.291 E-.04866
G1 X112.945 Y86.71 E-.15152
G1 X112.772 Y86.03 E-.16202
G1 X112.768 Y85.593 E-.10079
;WIPE_END
G1 Z.4 F720
G1 X98.853 Y121.384 F10800
G1 Z.2 F720
G1 E1 F2100
M204 S800
;TYPE:Perimeter
G1 F1200
G1 X98.7 Y121.223 E.00696
G1 X98.523 Y120.87 E.01238
G1 X98.459 Y120.462 E.01295
G1 X98.459 Y89.779 E.96204
G1 X98.529 Y89.353 E.01354
G1 X98.72 Y88.99 E.01286
G1 X98.99 Y88.72 E.01197
G1 X99.353 Y88.529 E.01286
G1 X99.779 Y88.459 E.01354
G1 X110.221 Y88.459 E.3274
G1 X110.57 Y88.506 E.01104
G1 X110.73 Y88.561 E.0053
G1 X111.173 Y88.864 E.01683
G1 X111.346 Y89.087 E.00885
G1 X111.513 Y89.508 E.0142
G1 X111.541 Y89.779 E.00854
G1 X111.541 Y120.462 E.96204
G1 X111.51 Y120.749 E.00905
M73 P1 R75
G1 X111.347 Y121.152 E.01363
G1 X111.152 Y121.398 E.00984
G1 X110.823 Y121.637 E.01275
G1 X110.526 Y121.746 E.00992
G1 X110.171 Y121.782 E.01119
G1 X99.779 Y121.782 E.32583
G1 X99.335 Y121.705 E.01413
G1 X98.963 Y121.5 E.01332
G1 X98.895 Y121.428 E.00311
M204 S1000
G1 X99.117 Y121.12 F10800
M204 S800
G1 F1200
G1 X99.008 Y121.005 E.00497
G1 X98.882 Y120.754 E.00881
G1 X98.836 Y120.462 E.00927
G1 X98.836 Y89.779 E.96204
G1 X98.886 Y89.475 E.00966
G1 X99.022 Y89.216 E.00917
G1 X99.216 Y89.022 E.0086
G1 X99.475 Y88.886 E.00917
G1 X99.779 Y88.836 E.00966
G1 X110.221 Y88.836 E.3274
G1 X110.585 Y88.909 E.01164
G1 X110.909 Y89.133 E.01235
G1 X111.117 Y89.484 E.01279
G1 X111.164 Y89.779 E.00937
G1 X111.164 Y120.462 E.96204
G1 X111.142 Y120.667 E.00646
G1 X110.961 Y121.047 E.0132
G1 X110.651 Y121.301 E.01257
G1 X110.439 Y121.379 E.00708
G1 X109.402 Y121.405 E.03252
G1 X99.779 Y121.405 E.30172
G1 X99.462 Y121.35 E.01009
G1 X99.196 Y121.203 E.00953
G1 X99.159 Y121.164 E.00169
M204 S1000
G1 X99.391 Y120.855 F10800
M204 S800
G1 F1200
G1 X99.316 Y120.788 E.00315
G1 X99.22 Y120.551 E.00802
G1 X99.213 Y89.779 E.96483
G1 X99.243 Y89.596 E.00581
G1 X99.379 Y89.379 E.00803
G1 X99.596 Y89.243 E.00803
G1 X99.779 Y89.213 E.00581
G1 X110.221 Y89.213 E.3274
G1 X110.439 Y89.257 E.00697
G1 X110.678 Y89.444 E.00951
G1 X110.784 Y89.72 E.00927
G1 X110.787 Y120.462 E.96389
G1 X110.704 Y120.758 E.00964
G1 X110.479 Y120.966 E.00961
G1 X110.171 Y121.028 E.00985
G1 X99.779 Y121.028 E.32583
G1 X99.504 Y120.956 E.00891
G1 X99.436 Y120.896 E.00284
M204 S1000
G1 X99.677 Y120.607 F10800
M204 S800
;TYPE:External perimeter
G1 F1200
G1 X99.641 Y120.591 E.00124
G1 X99.59 Y120.462 E.00435
G1 X99.6 Y89.718 E.96395
G1 X99.69 Y89.612 E.00436
G1 X99.779 Y89.59 E.00287
G1 X110.221 Y89.59 E.3274
G1 X110.359 Y89.65 E.00472
G1 X110.41 Y89.779 E.00435
G1 X110.41 Y120.462 E.96204
G1 X110.354 Y120.596 E.00455
G1 X110.221 Y120.651 E.00451
G1 X99.779 Y120.651 E.3274
G1 X99.732 Y120.631 E.0016
M204 S1000
;WIPE_START
G1 F8640
G1 X99.677 Y120.607 E-.01386
G1 X99.641 Y120.591 E-.0091
G1 X99.59 Y120.462 E-.03203
G1 X99.591 Y116.369 E-.94501
;WIPE_END
G1 Z.4 F720
G1 X114.144 Y120.895 F10800
G1 Z.2 F720
G1 E1 F2100
M204 S800
;TYPE:Perimeter
G1 F1200
G1 X114.098 Y120.874 E.00159
G1 X113.962 Y120.692 E.00712
G1 X113.836 Y120.221 E.01529
G1 X113.836 Y89.779 E.95449
G1 X113.962 Y89.308 E.01529
G1 X114.098 Y89.126 E.00712
G1 X114.291 Y89.037 E.00666
G1 X113.856 Y88.843 E.01493
G1 X113.316 Y88.47 E.02058
G1 X112.821 Y87.952 E.02246
G1 X112.582 Y87.641 E.0123
G1 X112.277 Y87.06 E.02057
G1 X112.097 Y86.442 E.02018
G1 X112.012 Y85.985 E.01457
G1 X112.012 Y85.329 E.02057
G1 X112.197 Y84.466 E.02767
G1 X112.573 Y83.688 E.02709
G1 X113.144 Y82.998 E.02808
G1 X113.856 Y82.471 E.02777
G1 X114.671 Y82.133 E.02766
G1 X115.525 Y82 E.0271
G1 X116.418 Y82.078 E.02811
G1 X117.256 Y82.365 E.02777
G1 X117.997 Y82.844 E.02767
G1 X118.603 Y83.486 E.02768
G1 X119.037 Y84.254 E.02766
G1 X119.274 Y85.103 E.02764
G1 X119.302 Y85.674 E.01792
G1 X119.274 Y86.211 E.01686
G1 X119.117 Y86.848 E.02057
G1 X118.732 Y87.641 E.02764
G1 X118.167 Y88.319 E.02767
G1 X117.467 Y88.836 E.02729
G1 X120.221 Y88.836 E.08635
G1 X120.603 Y88.916 E.01224
G1 X120.842 Y89.069 E.0089
G1 X121.067 Y89.362 E.01158
G1 X121.158 Y89.675 E.01022
G1 X121.164 Y89.779 E.00327
G1 X121.164 Y101.518 E.36807
G1 X123.98 Y104.333 E.12484
G1 X124.106 Y104.49 E.00631
G1 X124.247 Y104.869 E.01268
G1 X124.232 Y105.21 E.0107
G1 X124.058 Y105.578 E.01276
G1 X121.164 Y108.482 E.12855
G1 X121.164 Y120.221 E.36807
G1 X121.109 Y120.54 E.01015
G1 X120.935 Y120.838 E.01082
G1 X120.722 Y121.02 E.00878
G1 X120.4 Y121.147 E.01085
G1 X117.467 Y121.164 E.09196
G1 X117.997 Y121.53 E.0202
G1 X118.603 Y122.172 E.02768
G1 X119.037 Y122.94 E.02766
G1 X119.274 Y123.789 E.02764
G1 X119.302 Y124.326 E.01686
G1 X119.274 Y124.897 E.01792
G1 X119.117 Y125.534 E.02057
G1 X118.732 Y126.327 E.02764
G1 X118.167 Y127.006 E.0277
G1 X117.457 Y127.529 E.02765
G1 X116.643 Y127.867 E.02764
G1 X115.77 Y128.001 E.02769
G1 X114.892 Y127.922 E.02764
G1 X114.058 Y127.635 E.02765
G1 X113.316 Y127.156 E.02769
G1 X112.711 Y126.514 E.02766
G1 X112.277 Y125.746 E.02766
G1 X112.04 Y124.897 E.02764
G1 X112.012 Y124.015 E.02767
G1 X112.197 Y123.152 E.02767
G1 X112.573 Y122.374 E.02709
G1 X113.144 Y121.684 E.02808
G1 X113.856 Y121.157 E.02777
G1 X114.291 Y120.963 E.01493
G1 X114.198 Y120.92 E.00321
M204 S1000
G1 X114.412 Y120.632 F10800
M204 S800
G1 F1200
G1 X114.37 Y120.613 E.00145
G1 X114.288 Y120.504 E.00428
G1 X114.213 Y120.221 E.00918
G1 X114.213 Y89.779 E.95449
G1 X114.288 Y89.496 E.00918
G1 X114.37 Y89.387 E.00428
G1 X114.779 Y89.217 E.01389
;WIDTH:0.412148
G1 X115.572 Y89.239 E.02436
;WIDTH:0.408001
G1 X116.398 Y89.219 E.02508
;WIDTH:0.419999
G1 X120.221 Y89.213 E.11987
G1 X120.45 Y89.261 E.00734
G1 X120.65 Y89.409 E.0078
G1 X120.773 Y89.652 E.00854
G1 X120.787 Y89.779 E.00401
G1 X120.787 Y101.674 E.37296
G1 X123.713 Y104.6 E.12974
G1 X123.852 Y104.829 E.0084
G1 X123.872 Y105.088 E.00814
G1 X123.76 Y105.347 E.00885
G1 X120.787 Y108.326 E.13196
G1 X120.787 Y120.221 E.37296
G1 X120.729 Y120.472 E.00808
G1 X120.567 Y120.669 E.008
G1 X120.329 Y120.777 E.00819
G1 X116.579 Y120.784 E.11758
;WIDTH:0.413481
G1 X115.722 Y120.761 E.02642
;WIDTH:0.408073
G1 X114.915 Y120.781 E.02451
;WIDTH:0.41417
G1 X114.746 Y120.783 E.00522
;WIDTH:0.419999
G1 X114.467 Y120.657 E.0096
M204 S1000
G1 X114.675 Y120.35 F10800
M204 S800
;TYPE:External perimeter
G1 F1200
G1 X114.615 Y120.316 E.00216
G1 X114.59 Y120.221 E.00308
G1 X114.59 Y89.779 E.95449
G1 X114.642 Y89.648 E.00442
G1 X114.779 Y89.59 E.00466
G1 X120.221 Y89.59 E.17063
G1 X120.364 Y89.655 E.00493
G1 X120.41 Y89.779 E.00415
G1 X120.41 Y101.83 E.37785
G1 X123.447 Y104.867 E.13467
G1 X123.502 Y105 E.00451
G1 X123.447 Y105.133 E.00451
G1 X120.41 Y108.17 E.13467
