; generated by PrusaSlicer 2.9.2 on 2025-08-05 at 18:37:20 UTC


;
;
; 

; external perimeters extrusion width = 0.60mm
; perimeters extrusion width = 0.43mm
; infill extrusion width = 0.45mm
; solid infill extrusion width = 0.70mm
; top infill extrusion width = 0.45mm
; first layer extrusion width = 0.42mm

; external perimeters extrusion width = 0.60mm
; perimeters extrusion width = 0.43mm
; infill extrusion width = 0.45mm
; solid infill extrusion width = 0.70mm
; top infill extrusion width = 0.45mm
; first layer extrusion width = 0.42mm

M73 P0 R146
M201 X9000 Y9000 Z500 E10000 ; sets maximum accelerations, mm/sec^2
M203 X500 Y500 Z12 E120 ; sets maximum feedrates, mm / sec
M204 S2000 T1500 ; sets acceleration (S) and retract acceleration (R), mm/sec^2
M205 X10.00 Y10.00 Z0.20 E4.50 ; sets the jerk limits, mm/sec
M205 S0 T0 ; sets the minimum extruding and travel feed rate, mm/sec

; printing object R_HookScreenMount.stl id:1 copy 0
; stop printing object R_HookScreenMount.stl id:1 copy 0
; printing object L_HookScreenMount.stl id:0 copy 0
; stop printing object L_HookScreenMount.stl id:0 copy 0

;TYPE:Custom
M862.3 P "MK2.5SMMU2S" ; printer model check
M862.1 P0.4 ; nozzle diameter check
M115 U3.14.1 ; tell printer latest fw version
G90 ; use absolute coordinates
M83 ; extruder relative mode
M104 S230 ; set extruder temp
M140 S85 ; set bed temp
Tx
M190 S85 ; wait for bed temp
M109 S230 ; wait for extruder temp
G28 W ; home all without mesh bed level
G80 X69.8979 Y65.1229 W110.204 H79.7542 ; mesh bed levelling

;go outside print area
G1 Y-3 F1000
G1 Z0.4 F1000
; select extruder
Tc
; purge line
G1 X55 F2000
G1 Z0.3 F1000
G92 E0
G1 X240 E25 F2200
G1 Y-2 F1000
G1 X55 E25 F1400
G1 Z0.2 F1000
G1 X5 E4 F1000
G92 E0
G21 ; set units to millimeters
G90 ; use absolute coordinates
M83 ; use relative distances for extrusion

M900 K0.08 ; Filament gcode LA 1.5
M900 K45 ; Filament gcode LA 1.0




M107
;LAYER_CHANGE
;Z:0.2
;HEIGHT:0.2
G1 E-1 F2100
G1 Z.4 F720
G1 X70.477 Y66.252 F10800
G1 Z.2 F720
G1 E1 F2100
M204 S800
;TYPE:Skirt/Brim
;WIDTH:0.42
G1 F1200
G1 X71.51 Y65.449 E.04102
G1 X72.275 Y65.311 E.02437
G1 X177.725 Y65.311 E3.30631
G1 X178.973 Y65.702 E.04101
G1 X179.776 Y66.735 E.04102
G1 X179.914 Y67.5 E.02437
G1 X179.914 Y125.5 E1.81855
G1 X179.523 Y126.748 E.04101
G1 X178.429 Y127.572 E.04294
G1 X128.429 Y144.572 E1.65585
G1 X127.725 Y144.689 E.02238
G1 X72.275 Y144.689 E1.7386
G1 X71.027 Y144.298 E.04101
G1 X70.224 Y143.265 E.04102
G1 X70.086 Y142.5 E.02437
G1 X70.086 Y67.5 E2.35157
G1 X70.459 Y66.309 E.03913
M204 S1000
;WIPE_START
G1 F8640
G1 X70.477 Y66.252 E-.0138
G1 X71.51 Y65.449 E-.30211
G1 X72.275 Y65.311 E-.17949
G1 X74.46 Y65.311 E-.5046
;WIPE_END
G1 Z.4 F720
; printing object L_HookScreenMount.stl id:0 copy 0
G1 X165.608 Y79.883 F10800
G1 Z.2 F720
G1 E1 F2100
M204 S800
;TYPE:Perimeter
;WIDTH:0.419999
G1 F1200
G1 X165.48 Y79.775 E.00525
G1 X165.221 Y79.713 E.00835
G1 X73.687 Y79.713 E2.86998
G1 X73.687 Y68.287 E.35825
G1 X176.313 Y68.287 E3.21776
G1 X176.313 Y74.825 E.20499
G1 X176.313 Y96.713 E.68628
G1 X123.687 Y96.713 E1.65005
G1 X123.687 Y88.287 E.26419
G1 X165.221 Y88.287 E1.30227
G1 X165.399 Y88.259 E.00565
G1 X165.612 Y88.13 E.00781
G1 X165.739 Y87.949 E.00693
G1 X165.787 Y87.721 E.00731
G1 X165.782 Y80.203 E.23572
G1 X165.673 Y79.939 E.00896
G1 X165.653 Y79.922 E.00082
M204 S1000
G1 X165.323 Y80.133 F10800
M204 S800
;TYPE:External perimeter
G1 F1200
G1 X165.221 Y80.09 E.00347
G1 X73.31 Y80.09 E2.8818
G1 X73.31 Y67.91 E.38189
M73 P0 R145
G1 X176.69 Y67.91 E3.2414
G1 X176.69 Y74.825 E.21681
G1 X176.69 Y97.09 E.6981
G1 X123.31 Y97.09 E1.67369
G1 X123.31 Y87.91 E.28783
G1 X165.221 Y87.91 E1.31409
G1 X165.352 Y87.858 E.00442
G1 X165.41 Y87.721 E.00466
G1 X165.41 Y80.279 E.23334
G1 X165.366 Y80.169 E.00371
M204 S1000
;WIPE_START
G1 F8640
G1 X165.323 Y80.133 E-.01295
G1 X165.221 Y80.09 E-.02556
G1 X161.057 Y80.09 E-.96149
;WIPE_END
G1 Z.4 F720
G1 X176.143 Y69.222 F10800
G1 Z.2 F720
G1 E1 F2100
M204 S800
;TYPE:Solid infill
;WIDTH:0.421316
G1 F1200
G1 X175.548 Y68.626 E.0265
G1 X175.013 Y68.626 E.01683
G1 X175.974 Y69.587 E.04276
G1 X175.974 Y70.122 E.01683
G1 X174.478 Y68.626 E.06657
G1 X173.942 Y68.626 E.01686
G1 X175.974 Y70.658 E.09042
G1 X175.974 Y71.193 E.01683
G1 X173.407 Y68.626 E.11422
G1 X172.872 Y68.626 E.01683
G1 X175.974 Y71.728 E.13803
G1 X175.974 Y72.263 E.01683
G1 X172.337 Y68.626 E.16183
G1 X171.802 Y68.626 E.01683
G1 X175.974 Y72.798 E.18564
G1 X175.974 Y73.333 E.01683
G1 X171.267 Y68.626 E.20944
G1 X170.732 Y68.626 E.01683
G1 X175.974 Y73.868 E.23325
G1 X175.974 Y74.403 E.01683
G1 X170.197 Y68.626 E.25706
G1 X169.661 Y68.626 E.01686
G1 X175.974 Y74.939 E.28091
G1 X175.974 Y75.474 E.01683
G1 X169.126 Y68.626 E.30471
G1 X168.591 Y68.626 E.01683
G1 X175.974 Y76.009 E.32852
G1 X175.974 Y76.544 E.01683
G1 X168.056 Y68.626 E.35232
G1 X167.521 Y68.626 E.01683
G1 X175.974 Y77.079 E.37613
G1 X175.974 Y77.614 E.01683
G1 X166.986 Y68.626 E.39993
G1 X166.451 Y68.626 E.01683
G1 X175.974 Y78.149 E.42374
G1 X175.974 Y78.685 E.01686
G1 X165.915 Y68.626 E.44759
G1 X165.38 Y68.626 E.01683
G1 X175.974 Y79.22 E.4714
G1 X175.974 Y79.755 E.01683
G1 X164.845 Y68.626 E.4952
G1 X164.31 Y68.626 E.01683
G1 X175.974 Y80.29 E.51901
G1 X175.974 Y80.825 E.01683
G1 X163.775 Y68.626 E.54281
G1 X163.24 Y68.626 E.01683
G1 X175.974 Y81.36 E.56662
G1 X175.974 Y81.895 E.01683
G1 X162.705 Y68.626 E.59042
G1 X162.17 Y68.626 E.01683
G1 X175.974 Y82.43 E.61423
G1 X175.974 Y82.966 E.01686
G1 X161.634 Y68.626 E.63808
G1 X161.099 Y68.626 E.01683
G1 X175.974 Y83.501 E.66189
M73 P1 R145
G1 X175.974 Y84.036 E.01683
G1 X160.564 Y68.626 E.68569
G1 X160.029 Y68.626 E.01683
G1 X175.974 Y84.571 E.7095
G1 X175.974 Y85.106 E.01683
G1 X159.494 Y68.626 E.7333
G1 X158.959 Y68.626 E.01683
G1 X175.974 Y85.641 E.75711
G1 X175.974 Y86.176 E.01683
G1 X158.424 Y68.626 E.78091
G1 X157.888 Y68.626 E.01686
G1 X175.974 Y86.712 E.80476
G1 X175.974 Y87.247 E.01683
G1 X157.353 Y68.626 E.82857
G1 X156.818 Y68.626 E.01683
G1 X175.974 Y87.782 E.85237
G1 X175.974 Y88.317 E.01683
G1 X156.283 Y68.626 E.87618
G1 X155.748 Y68.626 E.01683
G1 X175.974 Y88.852 E.89999
G1 X175.974 Y89.387 E.01683
G1 X155.213 Y68.626 E.92379
G1 X154.678 Y68.626 E.01683
G1 X175.974 Y89.922 E.9476
G1 X175.974 Y90.457 E.01683
G1 X166.126 Y80.61 E.43818
G1 X166.126 Y81.145 E.01683
G1 X175.974 Y90.993 E.4382
G1 X175.974 Y91.528 E.01683
G1 X166.126 Y81.681 E.43818
G1 X166.126 Y82.216 E.01683
G1 X175.974 Y92.063 E.43818
G1 X175.974 Y92.598 E.01683
G1 X166.126 Y82.751 E.43818
G1 X166.126 Y83.286 E.01683
G1 X175.974 Y93.133 E.43818
G1 X175.974 Y93.668 E.01683
G1 X166.126 Y83.821 E.43818
G1 X166.126 Y84.356 E.01683
G1 X175.974 Y94.203 E.43818
G1 X175.974 Y94.739 E.01686
G1 X166.126 Y84.891 E.4382
G1 X166.126 Y85.427 E.01686
G1 X175.974 Y95.274 E.43818
G1 X175.974 Y95.809 E.01683
G1 X166.126 Y85.962 E.43818
G1 X166.126 Y86.497 E.01683
G1 X175.974 Y96.344 E.43818
G1 X175.974 Y96.374 E.00094
G1 X175.468 Y96.374 E.01592
G1 X166.126 Y87.032 E.41569
G1 X166.126 Y87.567 E.01683
G1 X174.933 Y96.374 E.39188
G1 X174.398 Y96.374 E.01683
G1 X166.066 Y88.042 E.37074
G1 X165.93 Y88.287 E.00882
G1 X165.851 Y88.362 E.00343
G1 X173.863 Y96.374 E.35651
G1 X173.328 Y96.374 E.01683
G1 X165.526 Y88.572 E.34716
G1 X165.233 Y88.626 E.00937
M73 P1 R144
G1 X165.045 Y88.626 E.00592
G1 X172.792 Y96.374 E.34474
G1 X172.257 Y96.374 E.01683
G1 X164.51 Y88.626 E.34474
G1 X163.975 Y88.626 E.01683
G1 X171.722 Y96.374 E.34474
G1 X171.187 Y96.374 E.01683
G1 X163.44 Y88.626 E.34474
G1 X162.905 Y88.626 E.01683
G1 X170.652 Y96.374 E.34474
G1 X170.117 Y96.374 E.01683
G1 X162.37 Y88.626 E.34474
G1 X161.834 Y88.626 E.01686
G1 X169.582 Y96.374 E.34476
G1 X169.046 Y96.374 E.01686
G1 X161.299 Y88.626 E.34474
G1 X160.764 Y88.626 E.01683
G1 X168.511 Y96.374 E.34474
G1 X167.976 Y96.374 E.01683
G1 X160.229 Y88.626 E.34474
G1 X159.694 Y88.626 E.01683
G1 X167.441 Y96.374 E.34474
G1 X166.906 Y96.374 E.01683
G1 X159.159 Y88.626 E.34474
G1 X158.624 Y88.626 E.01683
G1 X166.371 Y96.374 E.34474
G1 X165.836 Y96.374 E.01683
G1 X158.089 Y88.626 E.34474
G1 X157.553 Y88.626 E.01686
G1 X165.301 Y96.374 E.34476
G1 X164.765 Y96.374 E.01686
G1 X157.018 Y88.626 E.34474
G1 X156.483 Y88.626 E.01683
G1 X164.23 Y96.374 E.34474
G1 X163.695 Y96.374 E.01683
G1 X155.948 Y88.626 E.34474
G1 X155.413 Y88.626 E.01683
G1 X163.16 Y96.374 E.34474
G1 X162.625 Y96.374 E.01683
G1 X154.878 Y88.626 E.34474
G1 X154.343 Y88.626 E.01683
G1 X162.09 Y96.374 E.34474
G1 X161.555 Y96.374 E.01683
G1 X153.808 Y88.626 E.34474
G1 X153.272 Y88.626 E.01686
G1 X161.019 Y96.374 E.34474
G1 X160.484 Y96.374 E.01683
G1 X152.737 Y88.626 E.34474
G1 X152.202 Y88.626 E.01683
G1 X159.949 Y96.374 E.34474
G1 X159.414 Y96.374 E.01683
G1 X151.667 Y88.626 E.34474
G1 X151.132 Y88.626 E.01683
G1 X158.879 Y96.374 E.34474
G1 X158.344 Y96.374 E.01683
G1 X150.597 Y88.626 E.34474
G1 X150.062 Y88.626 E.01683
G1 X157.809 Y96.374 E.34474
G1 X157.274 Y96.374 E.01683
G1 X149.526 Y88.626 E.34476
G1 X148.991 Y88.626 E.01683
G1 X156.738 Y96.374 E.34474
G1 X156.203 Y96.374 E.01683
G1 X148.456 Y88.626 E.34474
G1 X147.921 Y88.626 E.01683
G1 X155.668 Y96.374 E.34474
G1 X155.133 Y96.374 E.01683
G1 X147.386 Y88.626 E.34474
G1 X146.851 Y88.626 E.01683
G1 X154.598 Y96.374 E.34474
G1 X154.063 Y96.374 E.01683
G1 X146.316 Y88.626 E.34474
G1 X145.781 Y88.626 E.01683
G1 X153.528 Y96.374 E.34474
G1 X152.992 Y96.374 E.01686
G1 X145.245 Y88.626 E.34474
G1 X144.71 Y88.626 E.01683
G1 X152.457 Y96.374 E.34474
G1 X151.922 Y96.374 E.01683
G1 X144.175 Y88.626 E.34474
G1 X143.64 Y88.626 E.01683
G1 X151.387 Y96.374 E.34474
G1 X150.852 Y96.374 E.01683
G1 X143.105 Y88.626 E.34474
G1 X142.57 Y88.626 E.01683
G1 X150.317 Y96.374 E.34474
G1 X149.782 Y96.374 E.01683
G1 X142.035 Y88.626 E.34474
G1 X141.499 Y88.626 E.01686
G1 X149.247 Y96.374 E.34476
G1 X148.711 Y96.374 E.01686
G1 X140.964 Y88.626 E.34474
G1 X140.429 Y88.626 E.01683
G1 X148.176 Y96.374 E.34474
G1 X147.641 Y96.374 E.01683
G1 X139.894 Y88.626 E.34474
G1 X139.359 Y88.626 E.01683
G1 X147.106 Y96.374 E.34474
G1 X146.571 Y96.374 E.01683
G1 X138.824 Y88.626 E.34474
G1 X138.289 Y88.626 E.01683
G1 X146.036 Y96.374 E.34474
G1 X145.501 Y96.374 E.01683
G1 X137.754 Y88.626 E.34474
G1 X137.218 Y88.626 E.01686
G1 X144.965 Y96.374 E.34474
G1 X144.43 Y96.374 E.01683
G1 X136.683 Y88.626 E.34474
G1 X136.148 Y88.626 E.01683
G1 X143.895 Y96.374 E.34474
G1 X143.36 Y96.374 E.01683
G1 X135.613 Y88.626 E.34474
G1 X135.078 Y88.626 E.01683
G1 X142.825 Y96.374 E.34474
G1 X142.29 Y96.374 E.01683
G1 X134.543 Y88.626 E.34474
G1 X134.008 Y88.626 E.01683
G1 X141.755 Y96.374 E.34474
G1 X141.22 Y96.374 E.01683
G1 X133.472 Y88.626 E.34476
G1 X132.937 Y88.626 E.01683
G1 X140.684 Y96.374 E.34474
G1 X140.149 Y96.374 E.01683
G1 X132.402 Y88.626 E.34474
G1 X131.867 Y88.626 E.01683
G1 X139.614 Y96.374 E.34474
G1 X139.079 Y96.374 E.01683
G1 X131.332 Y88.626 E.34474
G1 X130.797 Y88.626 E.01683
G1 X138.544 Y96.374 E.34474
G1 X138.009 Y96.374 E.01683
G1 X130.262 Y88.626 E.34474
G1 X129.727 Y88.626 E.01683
G1 X137.474 Y96.374 E.34474
G1 X136.939 Y96.374 E.01683
G1 X129.191 Y88.626 E.34476
G1 X128.656 Y88.626 E.01683
G1 X136.403 Y96.374 E.34474
G1 X135.868 Y96.374 E.01683
G1 X128.121 Y88.626 E.34474
G1 X127.586 Y88.626 E.01683
G1 X135.333 Y96.374 E.34474
G1 X134.798 Y96.374 E.01683
G1 X127.051 Y88.626 E.34474
G1 X126.516 Y88.626 E.01683
G1 X134.263 Y96.374 E.34474
G1 X133.728 Y96.374 E.01683
G1 X125.981 Y88.626 E.34474
G1 X125.445 Y88.626 E.01686
G1 X133.193 Y96.374 E.34476
G1 X132.657 Y96.374 E.01686
G1 X124.91 Y88.626 E.34474
G1 X124.375 Y88.626 E.01683
G1 X132.122 Y96.374 E.34474
G1 X131.587 Y96.374 E.01683
G1 X124.026 Y88.813 E.33644
G1 X124.026 Y89.348 E.01683
G1 X131.052 Y96.374 E.31263
G1 X130.517 Y96.374 E.01683
G1 X124.026 Y89.883 E.28883
G1 X124.026 Y90.418 E.01683
G1 X129.982 Y96.374 E.26502
G1 X129.447 Y96.374 E.01683
G1 X124.026 Y90.953 E.24122
G1 X124.026 Y91.488 E.01683
G1 X128.912 Y96.374 E.21741
G1 X128.376 Y96.374 E.01686
G1 X124.026 Y92.024 E.19356
G1 X124.026 Y92.559 E.01683
G1 X127.841 Y96.374 E.16975
G1 X127.306 Y96.374 E.01683
G1 X124.026 Y93.094 E.14595
G1 X124.026 Y93.629 E.01683
G1 X126.771 Y96.374 E.12214
G1 X126.236 Y96.374 E.01683
G1 X124.026 Y94.164 E.09834
G1 X124.026 Y94.699 E.01683
G1 X125.701 Y96.374 E.07453
G1 X125.166 Y96.374 E.01683
G1 X124.026 Y95.234 E.05073
G1 X124.026 Y95.77 E.01686
G1 X124.63 Y96.374 E.02688
G1 X124.095 Y96.374 E.01683
G1 X123.857 Y96.135 E.01061
M204 S1000
;WIPE_START
G1 F8640
G1 X124.095 Y96.374 E-.07788
G1 X124.63 Y96.374 E-.12353
G1 X124.026 Y95.77 E-.19723
G1 X124.026 Y95.234 E-.12376
G1 X125.166 Y96.374 E-.37226
G1 X125.622 Y96.374 E-.10534
;WIPE_END
G1 Z.4 F720
G1 X153.973 Y68.457 F10800
G1 Z.2 F720
G1 E1 F2100
M204 S800
G1 F1200
G1 X164.89 Y79.374 E.48577
G1 X164.355 Y79.374 E.01683
G1 X153.607 Y68.626 E.47825
G1 X153.072 Y68.626 E.01683
G1 X163.819 Y79.374 E.47823
G1 X163.284 Y79.374 E.01683
G1 X152.537 Y68.626 E.47823
G1 X152.002 Y68.626 E.01683
G1 X162.749 Y79.374 E.47823
G1 X162.214 Y79.374 E.01683
G1 X151.467 Y68.626 E.47823
G1 X150.932 Y68.626 E.01683
G1 X161.679 Y79.374 E.47823
G1 X161.144 Y79.374 E.01683
G1 X150.397 Y68.626 E.47823
G1 X149.861 Y68.626 E.01686
G1 X160.609 Y79.374 E.47825
G1 X160.073 Y79.374 E.01686
G1 X149.326 Y68.626 E.47823
G1 X148.791 Y68.626 E.01683
G1 X159.538 Y79.374 E.47823
G1 X159.003 Y79.374 E.01683
G1 X148.256 Y68.626 E.47823
G1 X147.721 Y68.626 E.01683
M73 P2 R143
G1 X158.468 Y79.374 E.47823
G1 X157.933 Y79.374 E.01683
G1 X147.186 Y68.626 E.47823
G1 X146.651 Y68.626 E.01683
G1 X157.398 Y79.374 E.47823
G1 X156.863 Y79.374 E.01683
G1 X146.116 Y68.626 E.47823
G1 X145.58 Y68.626 E.01686
G1 X156.328 Y79.374 E.47825
G1 X155.792 Y79.374 E.01686
G1 X145.045 Y68.626 E.47823
G1 X144.51 Y68.626 E.01683
G1 X155.257 Y79.374 E.47823
G1 X154.722 Y79.374 E.01683
G1 X143.975 Y68.626 E.47823
G1 X143.44 Y68.626 E.01683
G1 X154.187 Y79.374 E.47823
G1 X153.652 Y79.374 E.01683
G1 X142.905 Y68.626 E.47823
G1 X142.37 Y68.626 E.01683
G1 X153.117 Y79.374 E.47823
G1 X152.582 Y79.374 E.01683
G1 X141.834 Y68.626 E.47825
G1 X141.299 Y68.626 E.01683
G1 X152.046 Y79.374 E.47823
G1 X151.511 Y79.374 E.01683
G1 X140.764 Y68.626 E.47823
G1 X140.229 Y68.626 E.01683
G1 X150.976 Y79.374 E.47823
G1 X150.441 Y79.374 E.01683
G1 X139.694 Y68.626 E.47823
G1 X139.159 Y68.626 E.01683
G1 X149.906 Y79.374 E.47823
G1 X149.371 Y79.374 E.01683
G1 X138.624 Y68.626 E.47823
G1 X138.089 Y68.626 E.01683
G1 X148.836 Y79.374 E.47823
G1 X148.301 Y79.374 E.01683
G1 X137.553 Y68.626 E.47825
G1 X137.018 Y68.626 E.01683
G1 X147.765 Y79.374 E.47823
G1 X147.23 Y79.374 E.01683
G1 X136.483 Y68.626 E.47823
G1 X135.948 Y68.626 E.01683
G1 X146.695 Y79.374 E.47823
G1 X146.16 Y79.374 E.01683
G1 X135.413 Y68.626 E.47823
G1 X134.878 Y68.626 E.01683
G1 X145.625 Y79.374 E.47823
G1 X145.09 Y79.374 E.01683
G1 X134.343 Y68.626 E.47823
G1 X133.808 Y68.626 E.01683
G1 X144.555 Y79.374 E.47823
G1 X144.019 Y79.374 E.01686
G1 X133.272 Y68.626 E.47823
G1 X132.737 Y68.626 E.01683
G1 X143.484 Y79.374 E.47823
G1 X142.949 Y79.374 E.01683
G1 X132.202 Y68.626 E.47823
G1 X131.667 Y68.626 E.01683
G1 X142.414 Y79.374 E.47823
G1 X141.879 Y79.374 E.01683
G1 X131.132 Y68.626 E.47823
G1 X130.597 Y68.626 E.01683
G1 X141.344 Y79.374 E.47823
G1 X140.809 Y79.374 E.01683
G1 X130.062 Y68.626 E.47823
G1 X129.526 Y68.626 E.01686
G1 X140.274 Y79.374 E.47825
G1 X139.738 Y79.374 E.01686
G1 X128.991 Y68.626 E.47823
G1 X128.456 Y68.626 E.01683
G1 X139.203 Y79.374 E.47823
G1 X138.668 Y79.374 E.01683
G1 X127.921 Y68.626 E.47823
G1 X127.386 Y68.626 E.01683
G1 X138.133 Y79.374 E.47823
G1 X137.598 Y79.374 E.01683
G1 X126.851 Y68.626 E.47823
G1 X126.316 Y68.626 E.01683
G1 X137.063 Y79.374 E.47823
G1 X136.528 Y79.374 E.01683
G1 X125.781 Y68.626 E.47823
G1 X125.245 Y68.626 E.01686
G1 X135.992 Y79.374 E.47823
G1 X135.457 Y79.374 E.01683
G1 X124.71 Y68.626 E.47823
G1 X124.175 Y68.626 E.01683
G1 X134.922 Y79.374 E.47823
G1 X134.387 Y79.374 E.01683
G1 X123.64 Y68.626 E.47823
G1 X123.105 Y68.626 E.01683
G1 X133.852 Y79.374 E.47823
